;FLAVOR:Marlin
;TIME:3636
;Filament used: 2.31154m
;Layer height: 0.2
;MINX:96.599
;MINY:85.083
;MINZ:0.2
;MAXX:138.4
;MAXY:151.046
;MAXZ:12.8
;Generated with Cura_SteamEngine 4.12.1
M140 S80
M105
M190 S80
M104 S230
M105
M109 S230
M82 ;absolute extrusion mode
M201 X500.00 Y500.00 Z100.00 E5000.00 ;Setup machine max acceleration
M203 X500.00 Y500.00 Z10.00 E50.00 ;Setup machine max feedrate
M204 P500.00 R1000.00 T500.00 ;Setup Print/Retract/Travel acceleration
M205 X8.00 Y8.00 Z0.40 E5.00 ;Setup Jerk
M220 S100 ;Reset Feedrate
M221 S100 ;Reset Flowrate

G28 ;Home

G92 E0 ;Reset Extruder
G1 Z2.0 F3000 ;Move Z Axis up
G1 X10.1 Y20 Z0.28 F5000.0 ;Move to start position
G1 X10.1 Y200.0 Z0.28 F1500.0 E15 ;Draw the first line
G1 X10.4 Y200.0 Z0.28 F5000.0 ;Move to side a little
G1 X10.4 Y20 Z0.28 F1500.0 E30 ;Draw the second line
G92 E0 ;Reset Extruder
G1 Z2.0 F3000 ;Move Z Axis up

G92 E0
G92 E0
G1 F1800 E-4
;LAYER_COUNT:64
;LAYER:0
M107
G0 F6000 X99.172 Y89.335 Z0.2
;TYPE:SKIRT
G1 F1800 E0
G1 F1200 X99.986 Y88.463 E0.03968
G1 X100.012 Y88.438 E0.04088
G1 X100.715 Y87.817 E0.07207
G1 X101.235 Y87.421 E0.09381
G1 X101.474 Y87.25 E0.10359
G1 X102.26 Y86.737 E0.1348
G1 X103.086 Y86.293 E0.166
G1 X104.193 Y85.831 E0.20589
G1 X104.421 Y85.75 E0.21394
G1 X105.317 Y85.474 E0.24512
G1 X106.234 Y85.275 E0.27633
G1 X107.247 Y85.148 E0.31029
G1 X107.593 Y85.121 E0.32183
G1 X108.314 Y85.089 E0.34584
G1 X108.857 Y85.083 E0.3639
G1 X126.16 Y85.085 E0.9394
G1 X126.648 Y85.092 E0.95563
G1 X126.992 Y85.102 E0.96708
G1 X127.342 Y85.118 E0.97873
G1 X128.277 Y85.201 E1.00995
G1 X129.2 Y85.363 E1.04112
G1 X129.782 Y85.508 E1.06107
G1 X130.009 Y85.571 E1.0689
G1 X130.901 Y85.86 E1.10009
G1 X131.765 Y86.224 E1.13127
G1 X132.53 Y86.622 E1.15995
G1 X132.724 Y86.733 E1.16739
G1 X133.517 Y87.233 E1.19857
G1 X134.473 Y87.975 E1.23882
G1 X134.602 Y88.087 E1.2445
G1 X135.283 Y88.731 E1.27567
G1 X135.907 Y89.431 E1.30686
G1 X136.469 Y90.182 E1.33806
G1 X136.965 Y90.978 E1.36926
G1 X137.391 Y91.814 E1.40046
G1 X137.745 Y92.682 E1.43164
G1 X138.024 Y93.578 E1.46285
G1 X138.225 Y94.494 E1.49405
G1 X138.347 Y95.424 E1.52524
G1 X138.382 Y95.964 E1.54324
G1 X138.394 Y96.378 E1.55702
G1 X138.4 Y96.906 E1.57458
G1 X138.4 Y101.257 E1.71929
G1 X138.398 Y101.469 E1.72634
G1 X138.373 Y102.766 E1.76949
G1 X138.338 Y103.453 E1.79237
G1 X138.247 Y104.548 E1.82892
G1 X138.194 Y105.095 E1.84719
G1 X138.023 Y107.593 E1.93047
G1 X137.922 Y110.113 E2.01436
G1 X137.893 Y112.636 E2.09828
G1 X137.934 Y115.124 E2.18104
G1 X138.048 Y117.654 E2.26527
G1 X138.237 Y120.238 E2.35145
G1 X138.336 Y121.371 E2.38927
G1 X138.359 Y121.685 E2.39975
G1 X138.369 Y121.855 E2.40541
G1 X138.383 Y122.174 E2.41603
G1 X138.395 Y122.578 E2.42947
G1 X138.4 Y122.905 E2.44035
G1 X138.4 Y137.765 E2.9346
G1 X138.398 Y137.99 E2.94208
G1 X138.373 Y139.213 E2.98276
G1 X138.314 Y140.149 E3.01396
G1 X138.146 Y141.222 E3.05008
G1 X138.101 Y141.439 E3.05745
G1 X137.871 Y142.348 E3.08864
G1 X137.426 Y143.572 E3.13196
G1 X137.333 Y143.787 E3.13975
G1 X136.924 Y144.631 E3.17094
G1 X136.234 Y145.748 E3.21461
G1 X136.087 Y145.957 E3.22311
G1 X135.516 Y146.701 E3.2543
G1 X134.591 Y147.675 E3.29898
G1 X134.532 Y147.73 E3.30166
G1 X134.044 Y148.158 E3.32325
G1 X133.841 Y148.326 E3.33201
G1 X133.094 Y148.893 E3.36321
G1 X132.301 Y149.394 E3.3944
G1 X131.664 Y149.732 E3.41839
G1 X131.427 Y149.848 E3.42716
G1 X130.568 Y150.224 E3.45835
G1 X129.68 Y150.526 E3.48955
G1 X129.176 Y150.66 E3.50689
G1 X128.994 Y150.704 E3.51312
G1 X128.074 Y150.885 E3.54431
G1 X127.159 Y150.986 E3.57492
G1 X126.691 Y151.018 E3.59053
G1 X126.08 Y151.043 E3.61087
G1 X125.782 Y151.046 E3.62078
G1 X109.354 Y151.044 E4.16718
G1 X108.623 Y151.034 E4.19149
G1 X107.31 Y150.937 E4.23528
G1 X107.064 Y150.904 E4.24354
G1 X106.141 Y150.74 E4.27472
G1 X105.199 Y150.486 E4.30717
G1 X105.01 Y150.426 E4.31376
G1 X104.129 Y150.105 E4.34495
G1 X103.278 Y149.709 E4.37617
G1 X102.757 Y149.421 E4.39597
G1 X102.526 Y149.285 E4.40488
G1 X101.739 Y148.775 E4.43607
G1 X101.16 Y148.335 E4.46026
G1 X101.036 Y148.234 E4.46558
G1 X100.335 Y147.611 E4.49677
G1 X99.711 Y146.956 E4.52686
G1 X99.569 Y146.794 E4.53403
G1 X98.981 Y146.063 E4.56523
G1 X98.304 Y145.024 E4.60647
G1 X98.177 Y144.803 E4.61495
G1 X97.744 Y143.97 E4.64618
G1 X97.385 Y143.104 E4.67736
G1 X97.214 Y142.601 E4.69503
G1 X97.13 Y142.332 E4.7044
G1 X96.889 Y141.425 E4.73561
G1 X96.726 Y140.502 E4.76679
G1 X96.662 Y139.894 E4.78712
G1 X96.638 Y139.581 E4.79756
G1 X96.607 Y138.869 E4.82127
G1 X96.601 Y138.316 E4.83966
G1 X96.599 Y130.725 E5.09214
G1 X96.6 Y123.575 E5.32995
G1 X96.602 Y123.366 E5.3369
G1 X96.627 Y122.065 E5.38018
G1 X96.662 Y121.376 E5.40313
G1 X96.753 Y120.283 E5.43961
G1 X96.806 Y119.736 E5.45788
G1 X96.977 Y117.238 E5.54116
G1 X97.078 Y114.718 E5.62504
G1 X97.107 Y112.195 E5.70897
G1 X97.066 Y109.707 E5.79173
G1 X96.952 Y107.177 E5.87596
G1 X96.763 Y104.593 E5.96214
G1 X96.664 Y103.46 E5.99996
G1 X96.641 Y103.146 E6.01043
G1 X96.631 Y102.976 E6.0161
G1 X96.617 Y102.657 E6.02672
G1 X96.605 Y102.253 E6.04016
G1 X96.6 Y101.926 E6.05104
G1 X96.601 Y96.94 E6.21687
G1 X96.611 Y96.236 E6.24029
G1 X96.664 Y95.299 E6.27151
G1 X96.797 Y94.371 E6.30269
G1 X97.009 Y93.457 E6.33389
G1 X97.297 Y92.565 E6.36507
G1 X97.661 Y91.7 E6.39628
G1 X98.097 Y90.87 E6.42747
G1 X98.602 Y90.08 E6.45865
G1 X99.172 Y89.335 E6.48985
G0 F6000 X99.566 Y89.489
G1 F1200 X100.263 Y88.751 E6.52361
G1 X100.289 Y88.726 E6.52481
G1 X100.98 Y88.117 E6.55545
G1 X101.468 Y87.746 E6.57584
G1 X101.707 Y87.575 E6.58561
G1 X102.478 Y87.073 E6.61621
G1 X103.29 Y86.639 E6.64683
G1 X104.326 Y86.208 E6.68415
G1 X104.554 Y86.127 E6.6922
G1 X105.435 Y85.856 E6.72286
G1 X106.335 Y85.664 E6.75347
G1 X107.278 Y85.547 E6.78507
G1 X107.624 Y85.52 E6.79662
G1 X108.319 Y85.489 E6.81975
G1 X108.857 Y85.483 E6.83765
G1 X126.154 Y85.485 E7.41295
G1 X126.642 Y85.492 E7.42918
G1 X126.974 Y85.502 E7.44023
G1 X127.324 Y85.518 E7.45188
G1 X128.241 Y85.6 E7.4825
G1 X129.147 Y85.761 E7.51311
G1 X129.675 Y85.893 E7.53121
G1 X129.902 Y85.956 E7.53905
G1 X130.777 Y86.241 E7.56965
G1 X131.625 Y86.6 E7.60028
G1 X132.331 Y86.97 E7.62679
G1 X132.525 Y87.081 E7.63423
G1 X133.304 Y87.572 E7.66485
G1 X134.21 Y88.277 E7.70304
G1 X134.339 Y88.389 E7.70872
G1 X135.008 Y89.022 E7.73935
G1 X135.619 Y89.711 E7.76998
G1 X136.167 Y90.45 E7.80058
G1 X136.65 Y91.234 E7.83121
G1 X137.063 Y92.057 E7.86183
G1 X137.402 Y92.913 E7.89246
G1 X137.667 Y93.795 E7.92309
G1 X137.853 Y94.696 E7.95369
G1 X137.982 Y95.979 E7.99657
G1 X137.994 Y96.383 E8.01002
G1 X138 Y96.906 E8.02741
G1 X138 Y101.257 E8.17213
G1 X137.998 Y101.461 E8.17891
G1 X137.973 Y102.758 E8.22206
G1 X137.94 Y103.42 E8.2441
G1 X137.864 Y104.347 E8.27504
G1 X137.795 Y105.064 E8.299
G1 X137.625 Y107.548 E8.38181
G1 X137.522 Y110.127 E8.46766
G1 X137.493 Y112.603 E8.55001
G1 X137.536 Y115.184 E8.63587
G1 X137.647 Y117.666 E8.7185
G1 X137.835 Y120.234 E8.80414
G1 X137.938 Y121.406 E8.84328
G1 X137.96 Y121.709 E8.85338
G1 X137.97 Y121.879 E8.85904
G1 X137.983 Y122.186 E8.86926
G1 X137.995 Y122.59 E8.88271
G1 X138 Y122.905 E8.89319
G1 X138 Y137.765 E9.38743
G1 X137.998 Y137.982 E9.39465
G1 X137.973 Y139.205 E9.43533
G1 X137.914 Y140.123 E9.46593
G1 X137.754 Y141.14 E9.50017
G1 X137.709 Y141.357 E9.50754
G1 X137.483 Y142.25 E9.53818
G1 X137.059 Y143.413 E9.57935
G1 X136.966 Y143.628 E9.58714
G1 X136.564 Y144.457 E9.61779
G1 X135.907 Y145.518 E9.65929
G1 X135.76 Y145.727 E9.66779
G1 X135.198 Y146.457 E9.69843
G1 X134.318 Y147.383 E9.74092
G1 X134.259 Y147.438 E9.74361
G1 X133.789 Y147.85 E9.76439
G1 X133.586 Y148.018 E9.77316
G1 X132.852 Y148.574 E9.80378
G1 X132.073 Y149.064 E9.83439
G1 X131.488 Y149.373 E9.8564
G1 X131.251 Y149.489 E9.86517
G1 X130.407 Y149.857 E9.8958
G1 X129.535 Y150.151 E9.9264
G1 X129.082 Y150.271 E9.94199
G1 X128.9 Y150.315 E9.94822
G1 X127.996 Y150.492 E9.97886
G1 X127.132 Y150.587 E10.00777
G1 X126.664 Y150.619 E10.02337
G1 X126.075 Y150.643 E10.04298
G1 X125.782 Y150.646 E10.05272
G1 X109.359 Y150.644 E10.59895
G1 X108.628 Y150.634 E10.62327
G1 X107.364 Y150.541 E10.66542
G1 X107.118 Y150.508 E10.67368
G1 X106.211 Y150.346 E10.70432
G1 X105.32 Y150.105 E10.73502
G1 X105.131 Y150.045 E10.74162
G1 X104.266 Y149.729 E10.77225
G1 X103.432 Y149.338 E10.80288
G1 X102.96 Y149.076 E10.82084
G1 X102.729 Y148.94 E10.82975
G1 X101.957 Y148.439 E10.86036
G1 X101.413 Y148.025 E10.8831
G1 X101.289 Y147.924 E10.88842
G1 X100.601 Y147.312 E10.91905
G1 X100.012 Y146.692 E10.94749
G1 X99.87 Y146.53 E10.95465
G1 X99.294 Y145.812 E10.98527
G1 X98.65 Y144.824 E11.0245
G1 X98.523 Y144.603 E11.03297
G1 X98.1 Y143.786 E11.06357
G1 X97.749 Y142.935 E11.09419
G1 X97.596 Y142.482 E11.11009
G1 X97.512 Y142.213 E11.11947
G1 X97.276 Y141.323 E11.15009
G1 X97.118 Y140.416 E11.18071
G1 X97.061 Y139.863 E11.1992
G1 X97.037 Y139.55 E11.20964
G1 X97.007 Y138.864 E11.23248
G1 X97.001 Y138.316 E11.25071
G1 X96.999 Y130.726 E11.50315
G1 X97 Y123.576 E11.74096
G1 X97.002 Y123.373 E11.74772
G1 X97.027 Y122.072 E11.791
G1 X97.061 Y121.409 E11.81308
G1 X97.151 Y120.322 E11.84935
G1 X97.205 Y119.767 E11.8679
G1 X97.375 Y117.283 E11.95071
G1 X97.478 Y114.704 E12.03656
G1 X97.507 Y112.228 E12.11892
G1 X97.464 Y109.647 E12.20477
G1 X97.353 Y107.165 E12.28741
G1 X97.165 Y104.597 E12.37305
G1 X97.062 Y103.425 E12.41218
G1 X97.04 Y103.122 E12.42228
G1 X97.03 Y102.952 E12.42795
G1 X97.017 Y102.645 E12.43817
G1 X97.005 Y102.241 E12.45161
G1 X97 Y101.926 E12.46209
G1 X97.001 Y96.945 E12.62776
G1 X97.011 Y96.241 E12.65117
G1 X97.064 Y95.322 E12.68179
G1 X97.197 Y94.411 E12.71241
G1 X97.408 Y93.515 E12.74303
G1 X97.696 Y92.641 E12.77363
G1 X98.059 Y91.795 E12.80425
G1 X98.494 Y90.983 E12.83489
G1 X98.998 Y90.213 E12.8655
G1 X99.566 Y89.489 E12.89611
G0 F6000 X99.96 Y89.645
G1 F1200 X100.566 Y89.015 E12.92518
G1 X101.244 Y88.418 E12.95523
G1 X101.701 Y88.072 E12.97429
G1 X101.94 Y87.901 E12.98407
G1 X102.697 Y87.408 E13.01411
G1 X103.494 Y86.985 E13.04412
G1 X104.46 Y86.585 E13.0789
G1 X104.688 Y86.504 E13.08695
G1 X105.552 Y86.239 E13.117
G1 X106.435 Y86.052 E13.14702
G1 X107.309 Y85.946 E13.17631
G1 X107.655 Y85.919 E13.18785
G1 X108.324 Y85.889 E13.21012
G1 X108.857 Y85.883 E13.22785
G1 X126.148 Y85.885 E13.80295
G1 X126.636 Y85.892 E13.81919
G1 X126.956 Y85.902 E13.82983
G1 X127.306 Y85.918 E13.84149
G1 X128.205 Y85.999 E13.87151
G1 X129.094 Y86.159 E13.90155
G1 X129.568 Y86.278 E13.91781
G1 X129.795 Y86.341 E13.92564
G1 X130.653 Y86.621 E13.95566
G1 X131.484 Y86.976 E13.98572
G1 X132.133 Y87.317 E14.0101
G1 X132.327 Y87.428 E14.01753
G1 X133.09 Y87.91 E14.04755
G1 X133.948 Y88.579 E14.08374
G1 X134.077 Y88.691 E14.08942
G1 X134.732 Y89.313 E14.11946
G1 X135.33 Y89.99 E14.14951
G1 X135.865 Y90.717 E14.17953
G1 X136.334 Y91.489 E14.20957
G1 X136.732 Y92.299 E14.23959
G1 X137.058 Y93.142 E14.26965
G1 X137.308 Y94.01 E14.2997
G1 X137.48 Y94.896 E14.32971
G1 X137.582 Y95.995 E14.36642
G1 X137.594 Y96.389 E14.37953
G1 X137.6 Y96.906 E14.39673
G1 X137.6 Y101.257 E14.54145
G1 X137.598 Y101.454 E14.548
G1 X137.573 Y102.751 E14.59115
G1 X137.541 Y103.387 E14.61233
G1 X137.451 Y104.47 E14.64847
G1 X137.396 Y105.032 E14.66725
G1 X137.225 Y107.54 E14.75086
G1 X137.122 Y110.106 E14.83628
G1 X137.093 Y112.605 E14.9194
G1 X137.136 Y115.173 E15.00482
G1 X137.25 Y117.712 E15.08936
G1 X137.439 Y120.299 E15.17563
G1 X137.539 Y121.441 E15.21376
G1 X137.56 Y121.732 E15.22346
G1 X137.584 Y122.198 E15.23898
G1 X137.596 Y122.602 E15.25242
G1 X137.6 Y122.905 E15.2625
G1 X137.6 Y137.765 E15.75675
G1 X137.598 Y137.973 E15.76367
G1 X137.573 Y139.196 E15.80435
G1 X137.514 Y140.098 E15.83442
G1 X137.363 Y141.059 E15.86677
G1 X137.318 Y141.276 E15.87414
G1 X137.095 Y142.151 E15.90418
G1 X136.692 Y143.254 E15.94323
G1 X136.599 Y143.469 E15.95103
G1 X136.204 Y144.282 E15.98109
G1 X135.58 Y145.288 E16.02046
G1 X135.433 Y145.497 E16.02896
G1 X134.881 Y146.212 E16.059
G1 X134.045 Y147.09 E16.09933
G1 X133.986 Y147.145 E16.10201
G1 X133.534 Y147.542 E16.12202
G1 X133.331 Y147.71 E16.13078
G1 X132.611 Y148.254 E16.1608
G1 X131.845 Y148.733 E16.19085
G1 X131.312 Y149.013 E16.21087
G1 X131.075 Y149.129 E16.21965
G1 X130.247 Y149.49 E16.24969
G1 X128.988 Y149.882 E16.29355
G1 X128.806 Y149.926 E16.29977
G1 X127.92 Y150.1 E16.32981
G1 X127.105 Y150.188 E16.35707
G1 X126.637 Y150.22 E16.37267
G1 X126.07 Y150.243 E16.39155
G1 X125.782 Y150.246 E16.40113
G1 X109.364 Y150.244 E16.94719
G1 X108.633 Y150.234 E16.97151
G1 X107.417 Y150.144 E17.01206
G1 X107.171 Y150.111 E17.02032
G1 X106.282 Y149.952 E17.05035
G1 X105.441 Y149.724 E17.07934
G1 X105.252 Y149.664 E17.08593
G1 X104.404 Y149.353 E17.11597
G1 X103.587 Y148.968 E17.14601
G1 X103.163 Y148.732 E17.16215
G1 X102.932 Y148.596 E17.17107
G1 X102.175 Y148.104 E17.2011
G1 X101.665 Y147.715 E17.22243
G1 X101.541 Y147.614 E17.22775
G1 X100.867 Y147.013 E17.25778
G1 X100.313 Y146.428 E17.28458
G1 X100.171 Y146.266 E17.29175
G1 X99.606 Y145.562 E17.32177
G1 X98.997 Y144.625 E17.35894
G1 X98.87 Y144.404 E17.36742
G1 X98.455 Y143.602 E17.39745
G1 X97.978 Y142.362 E17.44164
G1 X97.894 Y142.093 E17.45101
G1 X97.663 Y141.22 E17.48105
G1 X97.51 Y140.33 E17.51108
G1 X97.46 Y139.833 E17.5277
G1 X97.436 Y139.52 E17.53814
G1 X97.407 Y138.859 E17.56014
G1 X97.401 Y138.316 E17.57821
G1 X97.399 Y130.726 E17.83065
G1 X97.4 Y123.576 E18.06846
G1 X97.402 Y123.381 E18.07495
G1 X97.427 Y122.08 E18.11823
G1 X97.459 Y121.442 E18.13947
G1 X97.549 Y120.361 E18.17555
G1 X97.604 Y119.799 E18.19433
G1 X97.775 Y117.291 E18.27794
G1 X97.878 Y114.725 E18.36336
G1 X97.907 Y112.226 E18.44648
G1 X97.864 Y109.658 E18.5319
G1 X97.75 Y107.119 E18.61644
G1 X97.561 Y104.532 E18.70271
G1 X97.461 Y103.39 E18.74084
G1 X97.44 Y103.099 E18.75054
G1 X97.416 Y102.633 E18.76606
G1 X97.404 Y102.229 E18.7795
G1 X97.4 Y101.926 E18.78958
G1 X97.401 Y96.951 E18.95505
G1 X97.411 Y96.247 E18.97847
G1 X97.464 Y95.346 E19.00849
G1 X97.596 Y94.452 E19.03855
G1 X97.807 Y93.574 E19.06858
G1 X98.095 Y92.718 E19.09862
G1 X98.457 Y91.891 E19.12864
G1 X98.891 Y91.099 E19.15868
G1 X99.393 Y90.348 E19.18873
G1 X99.96 Y89.645 E19.21877
G1 F1800 E15.21877
;MESH:[a]_guidler.stl
G0 F6000 X107.547 Y120.649
G0 X108.312 Y121.466
G0 X109.203 Y134.209
G0 X110.469 Y136.59
G0 X110.732 Y136.923
G0 X112.103 Y138.364
;TYPE:WALL-INNER
G1 F1800 E19.21877
G1 F1200 X112.707 Y138.402 E19.2389
G1 X113.236 Y138.334 E19.25663
G1 X113.621 Y138.222 E19.26997
G1 X114.106 Y137.998 E19.28774
G1 X114.597 Y137.642 E19.30791
G1 X115.012 Y137.191 E19.3283
G1 X115.32 Y136.672 E19.34837
G1 X115.502 Y136.168 E19.36619
G1 X115.577 Y135.771 E19.37963
G1 X115.599 Y135.245 E19.39714
G1 X115.507 Y134.642 E19.41743
G1 X115.292 Y134.068 E19.43781
G1 X114.97 Y133.555 E19.45796
G1 X114.606 Y133.167 E19.47565
G1 X114.288 Y132.919 E19.48907
G1 X113.827 Y132.657 E19.5067
G1 X113.247 Y132.465 E19.52702
G1 X112.647 Y132.396 E19.54711
G1 X112.117 Y132.436 E19.56479
G1 X111.722 Y132.528 E19.57828
G1 X111.229 Y132.727 E19.59596
G1 X110.718 Y133.056 E19.61617
G1 X110.283 Y133.487 E19.63654
G1 X109.948 Y133.991 E19.65667
G1 X109.734 Y134.499 E19.675
G1 X109.612 Y135.09 E19.69508
G1 X109.611 Y135.705 E19.71553
G1 X109.736 Y136.303 E19.73585
G1 X109.976 Y136.862 E19.75608
G1 X110.278 Y137.301 E19.77381
G1 X110.554 Y137.595 E19.78722
G1 X110.971 Y137.922 E19.80484
G1 X111.511 Y138.201 E19.82506
G1 X112.103 Y138.364 E19.84548
G0 F6000 X112.169 Y137.967
G1 F1200 X112.694 Y138 E19.86298
G1 X113.154 Y137.941 E19.8784
G1 X113.481 Y137.846 E19.88973
G1 X113.903 Y137.651 E19.90519
G1 X114.33 Y137.342 E19.92272
G1 X114.689 Y136.951 E19.94038
G1 X114.957 Y136.5 E19.95782
G1 X115.115 Y136.062 E19.97331
G1 X115.179 Y135.725 E19.98472
G1 X115.198 Y135.267 E19.99997
G1 X115.118 Y134.743 E20.0176
G1 X114.932 Y134.246 E20.03525
G1 X114.652 Y133.8 E20.05276
G1 X114.336 Y133.463 E20.06813
G1 X114.065 Y133.252 E20.07955
G1 X113.664 Y133.024 E20.09489
G1 X113.161 Y132.858 E20.11251
G1 X112.639 Y132.798 E20.12999
G1 X112.178 Y132.833 E20.14536
G1 X111.843 Y132.911 E20.1568
G1 X111.414 Y133.084 E20.17219
G1 X110.97 Y133.37 E20.18976
G1 X110.593 Y133.743 E20.20739
