;FLAVOR:Marlin
;TIME:8550
;Filament used: 2.19594m
;Layer height: 0.12
;MINX:83.288
;MINY:112.465
;MINZ:0.2
;MAXX:151.713
;MAXY:126.526
;MAXZ:52.64
;Generated with Cura_SteamEngine 4.12.1
M140 S60
M105
M190 S60
M104 S200
M105
M109 S200
M82 ;absolute extrusion mode
M201 X500.00 Y500.00 Z100.00 E5000.00 ;Setup machine max acceleration
M203 X500.00 Y500.00 Z10.00 E50.00 ;Setup machine max feedrate
M204 P500.00 R1000.00 T500.00 ;Setup Print/Retract/Travel acceleration
M205 X8.00 Y8.00 Z0.40 E5.00 ;Setup Jerk
M220 S100 ;Reset Feedrate
M221 S100 ;Reset Flowrate

G28 ;Home

G92 E0 ;Reset Extruder
G1 Z2.0 F3000 ;Move Z Axis up
G1 X10.1 Y20 Z0.28 F5000.0 ;Move to start position
G1 X10.1 Y200.0 Z0.28 F1500.0 E15 ;Draw the first line
G1 X10.4 Y200.0 Z0.28 F5000.0 ;Move to side a little
G1 X10.4 Y20 Z0.28 F1500.0 E30 ;Draw the second line
G92 E0 ;Reset Extruder
G1 Z2.0 F3000 ;Move Z Axis up

G92 E0
G92 E0
G1 F1500 E-2.5
;LAYER_COUNT:439
;LAYER:0
M107
M204 S500
M205 X8 Y8
G0 F6000 X86.968 Y115.959 Z0.2
M204 S275
;TYPE:SKIRT
G1 F1500 E0
G1 F600 X87.33 Y115.706 E0.01542
G1 X87.694 Y115.477 E0.03044
G1 X87.992 Y115.305 E0.04246
G1 X88.305 Y115.14 E0.05482
G1 X88.518 Y115.038 E0.06306
G1 X88.778 Y114.923 E0.07299
G1 X89.147 Y114.774 E0.08689
G1 X89.515 Y114.643 E0.10053
G1 X89.914 Y114.523 E0.11508
G1 X90.18 Y114.451 E0.12471
G1 X90.59 Y114.36 E0.13937
G1 X91.005 Y114.287 E0.15409
G1 X91.21 Y114.259 E0.16131
G1 X91.492 Y114.228 E0.17122
G1 X91.802 Y114.203 E0.18208
G1 X92.209 Y114.188 E0.19631
G1 X92.318 Y114.186 E0.20011
G1 X142.641 Y114.185 E1.95755
G1 X142.995 Y114.194 E1.96992
G1 X143.314 Y114.211 E1.98107
G1 X143.531 Y114.23 E1.98868
G1 X143.947 Y114.28 E2.00331
G1 X144.296 Y114.338 E2.01567
G1 X144.576 Y114.395 E2.02565
G1 X144.95 Y114.486 E2.03909
G1 X145.314 Y114.589 E2.0523
G1 X145.515 Y114.653 E2.05967
G1 X145.785 Y114.748 E2.06966
G1 X146.095 Y114.869 E2.08129
G1 X146.243 Y114.932 E2.0869
G1 X146.503 Y115.049 E2.09686
G1 X146.897 Y115.245 E2.11223
G1 X147.279 Y115.461 E2.12755
G1 X147.567 Y115.639 E2.13938
G1 X147.886 Y115.854 E2.15281
G1 X148.037 Y115.963 E2.15932
G1 X148.258 Y116.132 E2.16903
G1 X148.589 Y116.406 E2.18404
G1 X148.858 Y116.648 E2.19667
G1 X149.163 Y116.948 E2.21162
G1 X149.421 Y117.226 E2.22486
G1 X149.683 Y117.532 E2.23893
G1 X149.94 Y117.863 E2.25356
G1 X150.181 Y118.204 E2.26815
G1 X150.395 Y118.536 E2.28194
G1 X150.598 Y118.883 E2.29598
G1 X150.782 Y119.233 E2.30979
G1 X150.967 Y119.63 E2.32509
G1 X151.116 Y119.989 E2.33866
G1 X151.244 Y120.336 E2.35158
G1 X151.372 Y120.738 E2.36631
G1 X151.48 Y121.144 E2.38098
G1 X151.561 Y121.504 E2.39387
G1 X151.634 Y121.912 E2.40834
G1 X151.673 Y122.178 E2.41773
G1 X151.713 Y122.727 E2.43696
G1 X151.673 Y123.277 E2.45622
G1 X151.554 Y123.815 E2.47546
G1 X151.358 Y124.33 E2.4947
G1 X151.09 Y124.811 E2.51393
G1 X150.755 Y125.249 E2.53319
G1 X150.36 Y125.633 E2.55243
G1 X149.914 Y125.956 E2.57166
G1 X149.426 Y126.212 E2.5909
G1 X148.906 Y126.394 E2.61014
G1 X148.365 Y126.499 E2.62939
G1 X147.913 Y126.526 E2.6452
G1 X146.113 Y126.526 E2.70807
G1 X145.563 Y126.486 E2.72732
G1 X145.025 Y126.367 E2.74657
G1 X144.51 Y126.171 E2.76581
G1 X144.029 Y125.903 E2.78504
G1 X143.591 Y125.569 E2.80428
G1 X143.207 Y125.174 E2.82352
G1 X142.883 Y124.728 E2.84277
G1 X142.628 Y124.24 E2.862
G1 X142.445 Y123.72 E2.88125
G1 X142.414 Y123.567 E2.8867
G1 X142.029 Y123.549 E2.90016
G1 X140.194 Y123.55 E2.96424
G1 X139.816 Y123.548 E2.97744
G1 X92.987 Y123.548 E4.61286
G1 X92.654 Y123.56 E4.6245
G1 X92.585 Y123.566 E4.62692
G1 X92.548 Y123.75 E4.63347
G1 X92.361 Y124.269 E4.65274
G1 X92.102 Y124.755 E4.67197
G1 X91.774 Y125.198 E4.69122
G1 X91.386 Y125.589 E4.71046
G1 X90.946 Y125.92 E4.72968
G1 X90.462 Y126.184 E4.74894
G1 X89.945 Y126.375 E4.76819
G1 X89.406 Y126.49 E4.78743
G1 X88.891 Y126.525 E4.80546
G1 X87.089 Y126.526 E4.86839
G1 X86.54 Y126.486 E4.88762
G1 X86.001 Y126.368 E4.90689
G1 X85.486 Y126.172 E4.92613
G1 X85.005 Y125.905 E4.94534
G1 X84.567 Y125.57 E4.9646
G1 X84.182 Y125.176 E4.98384
G1 X83.858 Y124.73 E5.00309
G1 X83.602 Y124.242 E5.02233
G1 X83.42 Y123.722 E5.04157
G1 X83.314 Y123.181 E5.06083
G1 X83.288 Y122.631 E5.08006
G1 X83.327 Y122.176 E5.096
G1 X83.367 Y121.908 E5.10547
G1 X83.439 Y121.502 E5.11987
G1 X83.498 Y121.234 E5.12945
G1 X83.6 Y120.838 E5.14373
G1 X83.709 Y120.477 E5.1569
G1 X83.843 Y120.095 E5.17104
G1 X84.001 Y119.701 E5.18586
G1 X84.154 Y119.364 E5.19879
G1 X84.342 Y118.994 E5.21328
G1 X84.551 Y118.624 E5.22812
G1 X84.769 Y118.277 E5.24244
G1 X85.009 Y117.931 E5.25714
G1 X85.233 Y117.635 E5.2701
G1 X85.512 Y117.301 E5.2853
G1 X85.785 Y117.003 E5.29942
G1 X86.055 Y116.731 E5.3128
G1 X86.355 Y116.455 E5.32704
G1 X86.686 Y116.177 E5.34213
G1 X86.968 Y115.959 E5.35458
M204 S500
G0 F6000 X87.21 Y116.277
M204 S275
G1 F600 X87.556 Y116.036 E5.36931
G1 X87.903 Y115.818 E5.38362
G1 X88.19 Y115.653 E5.39518
G1 X88.489 Y115.495 E5.40699
G1 X88.68 Y115.404 E5.41438
G1 X89.064 Y115.236 E5.42902
G1 X89.446 Y115.09 E5.4433
G1 X89.79 Y114.976 E5.45595
G1 X90.118 Y114.881 E5.46788
G1 X90.434 Y114.802 E5.47926
G1 X90.829 Y114.722 E5.49333
G1 X91.253 Y114.656 E5.50832
G1 X91.535 Y114.625 E5.51822
G1 X91.83 Y114.602 E5.52856
G1 X92.22 Y114.587 E5.54219
G1 X142.641 Y114.585 E7.30305
G1 X142.984 Y114.593 E7.31503
G1 X143.291 Y114.61 E7.32577
G1 X143.485 Y114.627 E7.33257
G1 X143.768 Y114.66 E7.34252
G1 X144.05 Y114.701 E7.35247
G1 X144.216 Y114.73 E7.35835
G1 X144.496 Y114.787 E7.36833
G1 X144.852 Y114.873 E7.38112
G1 X145.203 Y114.973 E7.39387
G1 X145.382 Y115.031 E7.40044
G1 X145.652 Y115.126 E7.41044
G1 X145.947 Y115.24 E7.42148
G1 X146.079 Y115.296 E7.42649
G1 X146.339 Y115.413 E7.43645
G1 X146.714 Y115.601 E7.4511
G1 X147.079 Y115.807 E7.46573
G1 X147.356 Y115.978 E7.4771
G1 X147.659 Y116.183 E7.48988
G1 X147.794 Y116.281 E7.4957
G1 X148.015 Y116.45 E7.50542
G1 X148.331 Y116.712 E7.51976
G1 X148.589 Y116.943 E7.53185
G1 X148.879 Y117.23 E7.5461
G1 X149.126 Y117.495 E7.55875
G1 X149.376 Y117.789 E7.57223
G1 X149.622 Y118.106 E7.58624
G1 X149.852 Y118.431 E7.60014
G1 X150.057 Y118.75 E7.61339
G1 X150.25 Y119.081 E7.62677
G1 X150.426 Y119.416 E7.63998
G1 X150.602 Y119.794 E7.65455
G1 X150.745 Y120.14 E7.66762
G1 X150.867 Y120.472 E7.67997
G1 X150.989 Y120.855 E7.69401
G1 X151.092 Y121.243 E7.70803
G1 X151.17 Y121.59 E7.72045
G1 X151.239 Y121.978 E7.73421
G1 X151.277 Y122.235 E7.74329
G1 X151.313 Y122.755 E7.76149
G1 X151.268 Y123.275 E7.77972
G1 X151.145 Y123.781 E7.7979
G1 X150.946 Y124.263 E7.81611
G1 X150.676 Y124.708 E7.83429
G1 X150.34 Y125.107 E7.85251
G1 X149.948 Y125.45 E7.8707
G1 X149.508 Y125.729 E7.88889
G1 X149.03 Y125.937 E7.9071
G1 X148.526 Y126.07 E7.9253
G1 X147.913 Y126.126 E7.9468
G1 X146.113 Y126.126 E8.00966
G1 X145.593 Y126.086 E8.02788
G1 X145.086 Y125.967 E8.04606
G1 X144.603 Y125.772 E8.06425
G1 X144.155 Y125.506 E8.08245
G1 X143.753 Y125.174 E8.10066
G1 X143.407 Y124.784 E8.11887
G1 X143.124 Y124.346 E8.13708
G1 X142.911 Y123.871 E8.15526
G1 X142.75 Y123.214 E8.17888
G1 X142.503 Y123.174 E8.18762
G1 X142.178 Y123.152 E8.19899
G1 X142.037 Y123.149 E8.20392
G1 X140.196 Y123.15 E8.26821
G1 X139.818 Y123.148 E8.28141
G1 X92.979 Y123.148 E9.91718
G1 X92.619 Y123.161 E9.92976
G1 X92.294 Y123.204 E9.94121
G1 X92.25 Y123.214 E9.94278
G1 X92.155 Y123.67 E9.95905
G1 X91.972 Y124.158 E9.97725
G1 X91.717 Y124.612 E9.99544
G1 X91.396 Y125.022 E10.01362
G1 X91.015 Y125.378 E10.03183
G1 X90.585 Y125.672 E10.05002
G1 X90.114 Y125.897 E10.06825
G1 X89.615 Y126.047 E10.08645
G1 X88.891 Y126.125 E10.11188
G1 X87.089 Y126.126 E10.17481
G1 X86.569 Y126.086 E10.19303
G1 X86.062 Y125.968 E10.21121
G1 X85.578 Y125.773 E10.22943
G1 X85.13 Y125.507 E10.24762
G1 X84.728 Y125.175 E10.26583
G1 X84.382 Y124.786 E10.28401
G1 X84.099 Y124.348 E10.30223
G1 X83.886 Y123.872 E10.32044
G1 X83.748 Y123.37 E10.33862
G1 X83.689 Y122.852 E10.35683
G1 X83.723 Y122.234 E10.37844
G1 X83.761 Y121.973 E10.38765
G1 X83.83 Y121.588 E10.40131
G1 X83.889 Y121.32 E10.4109
G1 X83.986 Y120.941 E10.42456
G1 X84.091 Y120.596 E10.43715
G1 X84.219 Y120.23 E10.45069
G1 X84.371 Y119.854 E10.46486
G1 X84.517 Y119.532 E10.4772
G1 X84.697 Y119.178 E10.49107
G1 X84.897 Y118.825 E10.50524
G1 X85.106 Y118.493 E10.51894
G1 X85.336 Y118.162 E10.53302
G1 X85.55 Y117.879 E10.54541
G1 X85.817 Y117.561 E10.55991
G1 X86.078 Y117.275 E10.57343
G1 X86.336 Y117.015 E10.58622
G1 X86.623 Y116.751 E10.59984
G1 X86.939 Y116.486 E10.61425
G1 X87.21 Y116.277 E10.6262
M204 S500
G0 F6000 X87.452 Y116.596
M204 S275
G1 F600 X87.781 Y116.367 E10.6402
G1 X88.113 Y116.159 E10.65388
G1 X88.387 Y116.001 E10.66492
G1 X88.674 Y115.85 E10.67625
G1 X88.841 Y115.769 E10.68273
G1 X89.101 Y115.654 E10.69266
G1 X89.441 Y115.517 E10.70546
G1 X89.774 Y115.4 E10.71779
G1 X90.138 Y115.291 E10.73106
G1 X90.383 Y115.225 E10.73992
G1 X90.757 Y115.142 E10.7533
G1 X91.136 Y115.076 E10.76673
G1 X91.297 Y115.054 E10.77241
G1 X91.579 Y115.023 E10.78232
G1 X91.859 Y115.001 E10.79212
G1 X92.232 Y114.987 E10.80516
G1 X142.641 Y114.985 E12.5656
G1 X142.972 Y114.993 E12.57716
G1 X143.267 Y115.009 E12.58748
G1 X143.438 Y115.024 E12.59348
G1 X143.826 Y115.071 E12.60712
G1 X144.136 Y115.122 E12.6181
G1 X144.416 Y115.179 E12.62808
G1 X144.754 Y115.261 E12.64022
G1 X145.091 Y115.357 E12.65246
G1 X145.25 Y115.408 E12.65829
G1 X145.52 Y115.503 E12.66829
G1 X145.798 Y115.612 E12.67871
G1 X145.915 Y115.661 E12.68314
G1 X146.175 Y115.778 E12.6931
G1 X146.531 Y115.957 E12.70702
G1 X146.878 Y116.153 E12.72094
G1 X147.144 Y116.317 E12.73185
G1 X147.432 Y116.512 E12.744
G1 X147.551 Y116.599 E12.74914
G1 X147.772 Y116.768 E12.75886
G1 X148.073 Y117.017 E12.7725
G1 X148.319 Y117.239 E12.78407
G1 X148.595 Y117.512 E12.79763
G1 X148.83 Y117.765 E12.80969
G1 X149.07 Y118.046 E12.8226
G1 X149.304 Y118.348 E12.83594
G1 X149.523 Y118.659 E12.84922
G1 X149.72 Y118.964 E12.8619
G1 X149.902 Y119.279 E12.87461
G1 X150.071 Y119.6 E12.88728
G1 X150.238 Y119.959 E12.9011
G1 X150.374 Y120.29 E12.9136
G1 X150.491 Y120.607 E12.9254
G1 X150.607 Y120.973 E12.93881
G1 X150.705 Y121.342 E12.95214
G1 X150.78 Y121.676 E12.9641
G1 X150.845 Y122.043 E12.97711
G1 X150.882 Y122.293 E12.98594
G1 X150.912 Y122.782 E13.00305
G1 X150.864 Y123.269 E13.02014
G1 X150.736 Y123.741 E13.03722
G1 X150.533 Y124.187 E13.05433
G1 X150.261 Y124.593 E13.0714
G1 X149.926 Y124.95 E13.0885
G1 X149.537 Y125.248 E13.10561
G1 X149.106 Y125.479 E13.12269
G1 X148.642 Y125.636 E13.13979
G1 X148.159 Y125.716 E13.15689
G1 X147.913 Y125.726 E13.16549
G1 X146.113 Y125.726 E13.22835
G1 X145.625 Y125.686 E13.24545
G1 X145.15 Y125.567 E13.26255
G1 X144.701 Y125.373 E13.27963
G1 X144.289 Y125.108 E13.29674
G1 X143.926 Y124.78 E13.31383
G1 X143.621 Y124.397 E13.33093
G1 X143.383 Y123.969 E13.34803
G1 X143.217 Y123.509 E13.36511
G1 X143.143 Y123.147 E13.37801
G1 X143.097 Y122.908 E13.38651
G1 X142.788 Y122.811 E13.39782
G1 X142.371 Y122.76 E13.41249
G1 X141.99 Y122.749 E13.4258
G1 X140.198 Y122.75 E13.48839
G1 X139.82 Y122.748 E13.50159
G1 X92.97 Y122.748 E15.13774
G1 X92.602 Y122.761 E15.1506
G1 X92.331 Y122.791 E15.16012
G1 X92.078 Y122.844 E15.16914
G1 X91.907 Y122.907 E15.17551
G1 X91.763 Y123.587 E15.19978
G1 X91.584 Y124.043 E15.21689
G1 X91.334 Y124.464 E15.23399
G1 X91.019 Y124.838 E15.25107
G1 X90.647 Y125.156 E15.26816
G1 X90.228 Y125.41 E15.28527
G1 X89.774 Y125.592 E15.30235
G1 X89.296 Y125.697 E15.31944
G1 X88.891 Y125.725 E15.33362
G1 X87.089 Y125.726 E15.39655
G1 X86.601 Y125.686 E15.41365
G1 X86.126 Y125.568 E15.43074
G1 X85.677 Y125.374 E15.44783
G1 X85.265 Y125.109 E15.46493
G1 X84.901 Y124.781 E15.48205
G1 X84.596 Y124.398 E15.49914
G1 X84.358 Y123.971 E15.51622
G1 X84.191 Y123.511 E15.53331
G1 X84.102 Y123.029 E15.55042
G1 X84.093 Y122.54 E15.5675
G1 X84.149 Y122.087 E15.58345
G1 X84.189 Y121.835 E15.59236
G1 X84.22 Y121.674 E15.59808
G1 X84.279 Y121.406 E15.60767
G1 X84.373 Y121.044 E15.62073
G1 X84.473 Y120.715 E15.63274
G1 X84.595 Y120.366 E15.64565
G1 X84.74 Y120.008 E15.65914
G1 X84.88 Y119.7 E15.67095
G1 X85.052 Y119.362 E15.6842
G1 X85.243 Y119.026 E15.69769
G1 X85.443 Y118.708 E15.71081
G1 X85.662 Y118.394 E15.72418
G1 X85.867 Y118.124 E15.73602
G1 X86.121 Y117.821 E15.74983
G1 X86.371 Y117.547 E15.76278
G1 X86.617 Y117.3 E15.77496
G1 X86.892 Y117.047 E15.78801
G1 X87.193 Y116.795 E15.80172
G1 X87.452 Y116.596 E15.81312
M204 S500
G0 F6000 X87.694 Y116.914
M204 S275
G1 F600 X88.007 Y116.697 E15.82642
G1 X88.322 Y116.5 E15.8394
G1 X88.585 Y116.349 E15.84999
G1 X88.858 Y116.205 E15.86077
G1 X89.003 Y116.135 E15.86639
G1 X89.358 Y115.98 E15.87992
G1 X89.704 Y115.847 E15.89287
G1 X90.014 Y115.743 E15.90429
G1 X90.321 Y115.655 E15.91544
G1 X90.601 Y115.584 E15.92553
G1 X90.959 Y115.511 E15.93829
G1 X91.341 Y115.452 E15.95178
G1 X91.721 Y115.412 E15.96513
G1 X91.999 Y115.394 E15.97486
G1 X92.318 Y115.386 E15.986
G1 X142.715 Y115.386 E17.74602
G1 X143.04 Y115.396 E17.75738
G1 X143.392 Y115.421 E17.7697
G1 X143.675 Y115.454 E17.77965
G1 X143.93 Y115.492 E17.78866
G1 X144.057 Y115.514 E17.79316
G1 X144.337 Y115.571 E17.80314
G1 X144.656 Y115.649 E17.81461
G1 X144.98 Y115.741 E17.82637
G1 X145.117 Y115.785 E17.83139
G1 X145.387 Y115.88 E17.84139
G1 X145.65 Y115.983 E17.85125
G1 X145.751 Y116.026 E17.85509
G1 X146.011 Y116.143 E17.86504
G1 X146.348 Y116.312 E17.87821
G1 X146.678 Y116.499 E17.89146
G1 X146.932 Y116.657 E17.9019
G1 X147.205 Y116.842 E17.91342
G1 X147.308 Y116.917 E17.91787
G1 X147.529 Y117.086 E17.92759
G1 X147.815 Y117.323 E17.94056
G1 X148.05 Y117.534 E17.95159
G1 X148.312 Y117.794 E17.96448
G1 X148.535 Y118.035 E17.97594
G1 X148.763 Y118.303 E17.98823
G1 X148.986 Y118.591 E18.00095
G1 X149.194 Y118.887 E18.01359
G1 X149.382 Y119.179 E18.02572
G1 X149.554 Y119.476 E18.0377
G1 X149.715 Y119.783 E18.04981
G1 X149.873 Y120.124 E18.06293
G1 X150.004 Y120.44 E18.07488
G1 X150.115 Y120.743 E18.08615
G1 X150.224 Y121.09 E18.09885
G1 X150.317 Y121.441 E18.11153
G1 X150.389 Y121.761 E18.12299
G1 X150.45 Y122.108 E18.13529
G1 X150.486 Y122.351 E18.14387
G1 X150.512 Y122.806 E18.15979
G1 X150.458 Y123.258 E18.17568
G1 X150.326 Y123.694 E18.19159
G1 X150.12 Y124.101 E18.20752
G1 X149.846 Y124.465 E18.22343
G1 X149.513 Y124.776 E18.23935
G1 X149.131 Y125.023 E18.25523
G1 X148.711 Y125.201 E18.27116
G1 X148.267 Y125.302 E18.28707
G1 X147.913 Y125.326 E18.29946
G1 X146.113 Y125.326 E18.36232
G1 X145.659 Y125.286 E18.37823
G1 X145.219 Y125.168 E18.39414
G1 X144.807 Y124.974 E18.41005
G1 X144.434 Y124.711 E18.42599
G1 X144.113 Y124.388 E18.44189
G1 X143.854 Y124.013 E18.45781
G1 X143.664 Y123.599 E18.47371
G1 X143.539 Y123.091 E18.49198
G1 X143.48 Y122.789 E18.50273
G1 X143.371 Y122.605 E18.5102
G1 X143.12 Y122.487 E18.51989
G1 X142.872 Y122.42 E18.52886
G1 X142.577 Y122.377 E18.53927
G1 X142.234 Y122.353 E18.55128
G1 X141.996 Y122.349 E18.55959
G1 X140.2 Y122.35 E18.62231
G1 X139.822 Y122.348 E18.63551
G1 X92.962 Y122.348 E20.27201
G1 X92.565 Y122.363 E20.28588
G1 X92.264 Y122.397 E20.29646
G1 X91.978 Y122.456 E20.30666
G1 X91.7 Y122.562 E20.31705
G1 X91.55 Y122.705 E20.32429
G1 X91.53 Y122.756 E20.3262
G1 X91.471 Y123.035 E20.33616
G1 X91.468 Y123.057 E20.33694
G1 X91.37 Y123.502 E20.35285
G1 X91.196 Y123.923 E20.36876
G1 X90.952 Y124.308 E20.38468
G1 X90.644 Y124.644 E20.4006
G1 X90.282 Y124.92 E20.41649
G1 X89.877 Y125.13 E20.43243
G1 X89.442 Y125.265 E20.44833
G1 X88.89 Y125.325 E20.46772
G1 X87.088 Y125.326 E20.53065
G1 X86.635 Y125.286 E20.54654
G1 X86.195 Y125.168 E20.56245
G1 X85.782 Y124.975 E20.57837
G1 X85.409 Y124.712 E20.5943
G1 X85.088 Y124.389 E20.61021
G1 X84.829 Y124.015 E20.6261
G1 X84.639 Y123.601 E20.642
G1 X84.523 Y123.16 E20.65793
G1 X84.487 Y122.706 E20.67383
G1 X84.514 Y122.35 E20.6863
G1 X84.551 Y122.102 E20.69506
G1 X84.611 Y121.76 E20.70718
G1 X84.67 Y121.492 E20.71677
G1 X84.759 Y121.148 E20.72918
G1 X84.855 Y120.834 E20.74064
G1 X84.972 Y120.501 E20.75297
G1 X85.11 Y120.161 E20.76578
G1 X85.243 Y119.868 E20.77702
G1 X85.407 Y119.546 E20.78964
G1 X85.589 Y119.227 E20.80247
G1 X85.78 Y118.924 E20.81498
G1 X85.989 Y118.625 E20.82772
G1 X86.184 Y118.368 E20.83898
