;FLAVOR:Marlin
;TIME:8580
;Filament used: 2.19527m
;Layer height: 0.12
;MINX:83.288
;MINY:138.482
;MINZ:0.2
;MAXX:151.713
;MAXY:152.543
;MAXZ:52.64
;Generated with Cura_SteamEngine 4.12.1
M140 S60
M105
M190 S60
M104 S200
M105
M109 S200
M82 ;absolute extrusion mode
M201 X500.00 Y500.00 Z100.00 E5000.00 ;Setup machine max acceleration
M203 X500.00 Y500.00 Z10.00 E50.00 ;Setup machine max feedrate
M204 P500.00 R1000.00 T500.00 ;Setup Print/Retract/Travel acceleration
M205 X8.00 Y8.00 Z0.40 E5.00 ;Setup Jerk
M220 S100 ;Reset Feedrate
M221 S100 ;Reset Flowrate

G28 ;Home

G92 E0 ;Reset Extruder
G1 Z2.0 F3000 ;Move Z Axis up
G1 X10.1 Y20 Z0.28 F5000.0 ;Move to start position
G1 X10.1 Y200.0 Z0.28 F1500.0 E15 ;Draw the first line
G1 X10.4 Y200.0 Z0.28 F5000.0 ;Move to side a little
G1 X10.4 Y20 Z0.28 F1500.0 E30 ;Draw the second line
G92 E0 ;Reset Extruder
G1 Z2.0 F3000 ;Move Z Axis up

G92 E0
G92 E0
G1 F1500 E-2.5
;LAYER_COUNT:439
;LAYER:0
M107
M204 S500
M205 X8 Y8
G0 F6000 X87.691 Y141.496 Z0.2
M204 S275
;TYPE:SKIRT
G1 F1500 E0
G1 F600 X88.043 Y141.295 E0.01416
G1 X88.312 Y141.153 E0.02478
G1 X88.518 Y141.055 E0.03275
G1 X88.778 Y140.94 E0.04267
G1 X89.153 Y140.788 E0.05681
G1 X89.435 Y140.686 E0.06728
G1 X89.633 Y140.621 E0.07456
G1 X89.904 Y140.541 E0.08442
G1 X90.195 Y140.464 E0.09494
G1 X90.37 Y140.424 E0.10121
G1 X90.649 Y140.366 E0.11116
G1 X91.019 Y140.302 E0.12427
G1 X91.209 Y140.276 E0.13097
G1 X91.49 Y140.245 E0.14084
G1 X91.858 Y140.217 E0.15373
G1 X92.265 Y140.203 E0.16795
G1 X142.641 Y140.201 E1.92724
G1 X142.995 Y140.21 E1.93961
G1 X143.333 Y140.229 E1.95143
G1 X143.531 Y140.247 E1.95837
G1 X143.814 Y140.28 E1.96832
G1 X144.169 Y140.332 E1.98085
G1 X144.575 Y140.411 E1.9953
G1 X144.95 Y140.502 E2.00877
G1 X145.326 Y140.609 E2.02243
G1 X145.742 Y140.749 E2.03776
G1 X146.136 Y140.903 E2.05253
G1 X146.47 Y141.05 E2.06527
G1 X146.636 Y141.13 E2.07171
G1 X146.887 Y141.258 E2.08155
G1 X147.228 Y141.448 E2.09518
G1 X147.526 Y141.629 E2.10736
G1 X147.876 Y141.864 E2.12208
G1 X148.037 Y141.98 E2.12901
G1 X148.258 Y142.149 E2.13873
G1 X148.553 Y142.391 E2.15205
G1 X148.827 Y142.635 E2.16486
G1 X148.955 Y142.757 E2.17104
G1 X149.148 Y142.949 E2.18055
G1 X149.421 Y143.242 E2.19453
G1 X149.689 Y143.557 E2.20898
G1 X149.934 Y143.872 E2.22291
G1 X150.18 Y144.218 E2.23774
G1 X150.393 Y144.548 E2.25146
G1 X150.6 Y144.902 E2.26578
G1 X150.785 Y145.255 E2.27969
G1 X150.962 Y145.633 E2.29427
G1 X151.121 Y146.019 E2.30885
G1 X151.248 Y146.367 E2.32179
G1 X151.37 Y146.75 E2.33583
G1 X151.477 Y147.147 E2.35018
G1 X151.563 Y147.529 E2.36386
G1 X151.634 Y147.932 E2.37815
G1 X151.673 Y148.191 E2.3873
G1 X151.713 Y148.74 E2.40652
G1 X151.673 Y149.29 E2.42578
G1 X151.555 Y149.828 E2.44501
G1 X151.359 Y150.343 E2.46426
G1 X151.091 Y150.825 E2.48352
G1 X150.757 Y151.262 E2.50273
G1 X150.362 Y151.647 E2.52199
G1 X149.916 Y151.971 E2.54124
G1 X149.428 Y152.227 E2.56049
G1 X148.909 Y152.409 E2.57969
G1 X148.368 Y152.515 E2.59895
G1 X147.915 Y152.542 E2.6148
G1 X146.114 Y152.543 E2.67769
G1 X145.565 Y152.503 E2.69692
G1 X145.026 Y152.385 E2.71618
G1 X144.511 Y152.189 E2.73543
G1 X144.03 Y151.922 E2.75464
G1 X143.592 Y151.587 E2.7739
G1 X143.207 Y151.193 E2.79314
G1 X142.883 Y150.747 E2.81239
G1 X142.627 Y150.259 E2.83163
G1 X142.445 Y149.739 E2.85087
G1 X142.414 Y149.584 E2.85639
G1 X141.987 Y149.566 E2.87132
G1 X92.964 Y149.565 E4.58336
G1 X92.668 Y149.575 E4.5937
G1 X92.585 Y149.583 E4.59661
G1 X92.548 Y149.767 E4.60317
G1 X92.361 Y150.286 E4.62243
G1 X92.102 Y150.772 E4.64166
G1 X91.774 Y151.215 E4.66091
G1 X91.386 Y151.606 E4.68015
G1 X90.946 Y151.937 E4.69938
G1 X90.462 Y152.201 E4.71863
G1 X89.945 Y152.392 E4.73788
G1 X89.406 Y152.507 E4.75713
G1 X88.889 Y152.542 E4.77523
G1 X87.087 Y152.542 E4.83816
G1 X86.537 Y152.502 E4.85742
G1 X85.999 Y152.383 E4.87666
G1 X85.484 Y152.187 E4.8959
G1 X85.003 Y151.919 E4.91513
G1 X84.565 Y151.585 E4.93437
G1 X84.181 Y151.19 E4.95361
G1 X83.857 Y150.744 E4.97286
G1 X83.602 Y150.256 E4.99209
G1 X83.419 Y149.736 E5.01134
G1 X83.314 Y149.195 E5.03059
G1 X83.288 Y148.645 E5.04982
G1 X83.327 Y148.189 E5.0658
G1 X83.366 Y147.928 E5.07501
G1 X83.44 Y147.515 E5.08967
G1 X83.499 Y147.248 E5.09922
G1 X83.6 Y146.855 E5.11339
G1 X83.709 Y146.494 E5.12656
G1 X83.849 Y146.098 E5.14123
G1 X83.994 Y145.736 E5.15484
G1 X84.161 Y145.366 E5.16902
G1 X84.335 Y145.022 E5.18248
G1 X84.551 Y144.64 E5.19781
G1 X84.774 Y144.287 E5.21239
G1 X85.004 Y143.954 E5.22653
G1 X85.24 Y143.644 E5.24013
G1 X85.506 Y143.325 E5.25464
G1 X85.785 Y143.019 E5.2691
G1 X86.064 Y142.739 E5.2829
G1 X86.346 Y142.478 E5.29632
G1 X86.694 Y142.187 E5.31216
G1 X86.971 Y141.974 E5.32437
G1 X87.33 Y141.723 E5.33966
G1 X87.691 Y141.496 E5.35456
M204 S500
G0 F6000 X87.901 Y141.836
M204 S275
G1 F600 X88.238 Y141.644 E5.3681
G1 X88.496 Y141.509 E5.37827
G1 X88.68 Y141.421 E5.38539
G1 X88.94 Y141.306 E5.39532
G1 X89.3 Y141.161 E5.40888
G1 X89.569 Y141.063 E5.41888
G1 X89.746 Y141.005 E5.42538
G1 X90.017 Y140.925 E5.43525
G1 X90.295 Y140.852 E5.44529
G1 X90.451 Y140.815 E5.45089
G1 X90.73 Y140.757 E5.46084
G1 X91.083 Y140.697 E5.47334
G1 X91.253 Y140.674 E5.47933
G1 X91.534 Y140.643 E5.48921
G1 X91.885 Y140.616 E5.5015
G1 X92.274 Y140.603 E5.51509
G1 X142.641 Y140.601 E7.27407
G1 X142.984 Y140.609 E7.28605
G1 X143.307 Y140.628 E7.29735
G1 X143.485 Y140.644 E7.30359
G1 X143.768 Y140.677 E7.31354
G1 X144.106 Y140.727 E7.32547
G1 X144.495 Y140.803 E7.33931
G1 X144.852 Y140.889 E7.35214
G1 X145.213 Y140.993 E7.36526
G1 X145.61 Y141.127 E7.37989
G1 X145.986 Y141.274 E7.39399
G1 X146.306 Y141.415 E7.4062
G1 X146.455 Y141.486 E7.41197
G1 X146.706 Y141.614 E7.42181
G1 X147.03 Y141.795 E7.43477
G1 X147.315 Y141.969 E7.44643
G1 X147.65 Y142.194 E7.46052
G1 X147.794 Y142.298 E7.46673
G1 X148.015 Y142.467 E7.47644
G1 X148.296 Y142.698 E7.48914
G1 X148.558 Y142.932 E7.50141
G1 X148.673 Y143.041 E7.50695
G1 X148.866 Y143.233 E7.51645
G1 X149.126 Y143.511 E7.52975
G1 X149.382 Y143.813 E7.54357
G1 X149.617 Y144.115 E7.55694
G1 X149.851 Y144.445 E7.57106
G1 X150.056 Y144.762 E7.58425
G1 X150.252 Y145.099 E7.59786
G1 X150.429 Y145.438 E7.61122
G1 X150.598 Y145.799 E7.62514
G1 X150.75 Y146.168 E7.63908
G1 X150.871 Y146.501 E7.65145
G1 X150.988 Y146.868 E7.6649
G1 X151.09 Y147.247 E7.67861
G1 X151.172 Y147.614 E7.69174
G1 X151.24 Y147.997 E7.70533
G1 X151.277 Y148.249 E7.71422
G1 X151.313 Y148.769 E7.73242
G1 X151.269 Y149.288 E7.75061
G1 X151.146 Y149.795 E7.76883
G1 X150.947 Y150.276 E7.78701
G1 X150.677 Y150.722 E7.80522
G1 X150.342 Y151.121 E7.82342
G1 X149.95 Y151.464 E7.84161
G1 X149.51 Y151.744 E7.85982
G1 X149.032 Y151.952 E7.87803
G1 X148.529 Y152.086 E7.8962
G1 X147.915 Y152.142 E7.91774
G1 X146.114 Y152.143 E7.98063
G1 X145.594 Y152.103 E7.99885
G1 X145.087 Y151.985 E8.01703
G1 X144.603 Y151.79 E8.03525
G1 X144.155 Y151.524 E8.05344
G1 X143.753 Y151.192 E8.07165
G1 X143.407 Y150.803 E8.08983
G1 X143.124 Y150.365 E8.10804
G1 X142.911 Y149.889 E8.12626
G1 X142.751 Y149.231 E8.14991
G1 X142.49 Y149.188 E8.15914
G1 X142.21 Y149.169 E8.16894
G1 X141.993 Y149.166 E8.17652
G1 X93.016 Y149.165 E9.88695
G1 X92.633 Y149.177 E9.90034
G1 X92.366 Y149.207 E9.90972
G1 X92.25 Y149.231 E9.91386
G1 X92.155 Y149.687 E9.93012
G1 X91.972 Y150.175 E9.94832
G1 X91.717 Y150.629 E9.96651
G1 X91.396 Y151.039 E9.98469
G1 X91.015 Y151.395 E10.0029
G1 X90.585 Y151.689 E10.0211
G1 X90.114 Y151.914 E10.03933
G1 X89.615 Y152.064 E10.05752
G1 X88.889 Y152.142 E10.08302
G1 X87.087 Y152.142 E10.14595
G1 X86.567 Y152.102 E10.16417
G1 X86.06 Y151.983 E10.18235
G1 X85.577 Y151.788 E10.20055
G1 X85.129 Y151.522 E10.21874
G1 X84.727 Y151.19 E10.23695
G1 X84.381 Y150.8 E10.25516
G1 X84.098 Y150.362 E10.27337
G1 X83.885 Y149.887 E10.29155
G1 X83.748 Y149.384 E10.30975
G1 X83.689 Y148.866 E10.32796
G1 X83.723 Y148.247 E10.34961
G1 X83.761 Y147.992 E10.35862
G1 X83.83 Y147.601 E10.37248
G1 X83.889 Y147.334 E10.38203
G1 X83.986 Y146.958 E10.39559
G1 X84.091 Y146.613 E10.40819
G1 X84.225 Y146.235 E10.42219
G1 X84.364 Y145.887 E10.43528
G1 X84.524 Y145.535 E10.44878
G1 X84.691 Y145.205 E10.4617
G1 X84.897 Y144.841 E10.4763
G1 X85.11 Y144.503 E10.49026
G1 X85.331 Y144.185 E10.50378
G1 X85.556 Y143.889 E10.51677
G1 X85.811 Y143.584 E10.53065
G1 X86.078 Y143.291 E10.54449
G1 X86.344 Y143.024 E10.55766
G1 X86.616 Y142.774 E10.57056
G1 X86.947 Y142.497 E10.58563
G1 X87.213 Y142.293 E10.59734
G1 X87.556 Y142.053 E10.61196
G1 X87.901 Y141.836 E10.62619
M204 S500
G0 F6000 X88.11 Y142.177
M204 S275
G1 F600 X88.434 Y141.993 E10.6392
G1 X88.679 Y141.864 E10.64887
G1 X88.841 Y141.786 E10.65515
G1 X89.101 Y141.671 E10.66508
G1 X89.446 Y141.533 E10.67806
G1 X89.703 Y141.44 E10.6876
G1 X89.86 Y141.389 E10.69337
G1 X90.231 Y141.281 E10.70686
G1 X90.532 Y141.207 E10.71769
G1 X90.811 Y141.149 E10.72764
G1 X91.147 Y141.091 E10.73955
G1 X91.297 Y141.071 E10.74483
G1 X91.578 Y141.04 E10.7547
G1 X91.912 Y141.015 E10.7664
G1 X92.284 Y141.003 E10.7794
G1 X142.641 Y141.001 E12.53802
G1 X142.972 Y141.009 E12.54959
G1 X143.282 Y141.027 E12.56043
G1 X143.438 Y141.041 E12.5659
G1 X143.721 Y141.074 E12.57585
G1 X144.044 Y141.123 E12.58726
G1 X144.416 Y141.195 E12.60049
G1 X144.754 Y141.277 E12.61264
G1 X145.1 Y141.377 E12.62522
G1 X145.478 Y141.504 E12.63914
G1 X145.837 Y141.645 E12.65261
G1 X146.142 Y141.78 E12.66426
G1 X146.273 Y141.842 E12.66932
G1 X146.524 Y141.97 E12.67916
G1 X146.832 Y142.142 E12.69148
G1 X147.105 Y142.309 E12.70266
G1 X147.424 Y142.524 E12.71609
G1 X147.551 Y142.616 E12.72157
G1 X147.772 Y142.785 E12.73129
G1 X148.04 Y143.005 E12.7434
G1 X148.29 Y143.228 E12.75509
G1 X148.391 Y143.324 E12.75996
G1 X148.584 Y143.516 E12.76947
G1 X148.83 Y143.781 E12.7821
G1 X149.075 Y144.069 E12.7953
G1 X149.3 Y144.358 E12.80809
G1 X149.522 Y144.673 E12.82155
G1 X149.718 Y144.977 E12.83418
G1 X149.904 Y145.297 E12.84711
G1 X150.073 Y145.621 E12.85987
G1 X150.234 Y145.965 E12.87313
G1 X150.379 Y146.317 E12.88643
G1 X150.494 Y146.635 E12.89824
G1 X150.606 Y146.986 E12.91111
G1 X150.703 Y147.348 E12.92419
G1 X150.781 Y147.698 E12.93672
G1 X150.845 Y148.062 E12.94962
G1 X150.881 Y148.307 E12.95827
G1 X150.913 Y148.795 E12.97535
G1 X150.864 Y149.282 E12.99244
G1 X150.737 Y149.755 E13.00955
G1 X150.534 Y150.201 E13.02666
G1 X150.262 Y150.608 E13.04376
G1 X149.928 Y150.965 E13.06083
G1 X149.539 Y151.263 E13.07794
G1 X149.108 Y151.494 E13.09502
G1 X148.644 Y151.651 E13.11213
G1 X148.161 Y151.732 E13.12923
G1 X147.915 Y151.742 E13.13783
G1 X146.114 Y151.743 E13.20073
G1 X145.626 Y151.703 E13.21783
G1 X145.151 Y151.585 E13.23492
G1 X144.702 Y151.391 E13.252
G1 X144.29 Y151.126 E13.26911
G1 X143.926 Y150.798 E13.28622
G1 X143.621 Y150.415 E13.30332
G1 X143.383 Y149.988 E13.32039
G1 X143.216 Y149.528 E13.33748
G1 X143.139 Y149.142 E13.35123
G1 X143.098 Y148.924 E13.35897
G1 X142.788 Y148.829 E13.3703
G1 X142.391 Y148.779 E13.38427
G1 X141.999 Y148.766 E13.39797
G1 X93.009 Y148.765 E15.10885
G1 X92.595 Y148.779 E15.12332
G1 X92.331 Y148.807 E15.13259
G1 X92.065 Y148.864 E15.14209
G1 X91.907 Y148.923 E15.14798
G1 X91.763 Y149.604 E15.17229
G1 X91.584 Y150.06 E15.1894
G1 X91.334 Y150.481 E15.2065
G1 X91.019 Y150.855 E15.22357
G1 X90.647 Y151.173 E15.24066
G1 X90.228 Y151.427 E15.25778
G1 X89.774 Y151.609 E15.27486
G1 X89.296 Y151.714 E15.29195
G1 X88.889 Y151.742 E15.3062
G1 X87.087 Y151.742 E15.36913
G1 X86.599 Y151.702 E15.38623
G1 X86.124 Y151.583 E15.40333
G1 X85.675 Y151.389 E15.42041
G1 X85.263 Y151.124 E15.43752
G1 X84.9 Y150.796 E15.4546
G1 X84.595 Y150.413 E15.4717
G1 X84.357 Y149.985 E15.4888
G1 X84.191 Y149.525 E15.50588
G1 X84.102 Y149.044 E15.52297
G1 X84.093 Y148.554 E15.54008
G1 X84.149 Y148.102 E15.55599
G1 X84.189 Y147.854 E15.56476
G1 X84.221 Y147.688 E15.57066
G1 X84.28 Y147.421 E15.58021
G1 X84.373 Y147.061 E15.5932
G1 X84.473 Y146.732 E15.60521
G1 X84.6 Y146.372 E15.61854
G1 X84.734 Y146.039 E15.63108
G1 X84.886 Y145.705 E15.64389
G1 X85.047 Y145.388 E15.65631
G1 X85.243 Y145.042 E15.67019
G1 X85.447 Y144.72 E15.68351
G1 X85.658 Y144.415 E15.69646
G1 X85.872 Y144.134 E15.70879
G1 X86.116 Y143.843 E15.72206
G1 X86.371 Y143.563 E15.73528
G1 X86.625 Y143.31 E15.7478
G1 X86.885 Y143.069 E15.76018
G1 X87.2 Y142.807 E15.77449
G1 X87.455 Y142.611 E15.78572
G1 X87.781 Y142.384 E15.7996
G1 X88.11 Y142.177 E15.81317
M204 S500
G0 F6000 X88.32 Y142.517
M204 S275
G1 F600 X88.629 Y142.342 E15.82557
G1 X88.863 Y142.22 E15.83479
G1 X89.003 Y142.152 E15.84023
G1 X89.263 Y142.037 E15.85015
G1 X89.593 Y141.905 E15.86257
G1 X89.837 Y141.816 E15.87164
G1 X89.973 Y141.772 E15.87663
G1 X90.331 Y141.668 E15.88965
G1 X90.614 Y141.598 E15.89983
G1 X90.893 Y141.54 E15.90978
G1 X91.211 Y141.486 E15.92105
G1 X91.341 Y141.469 E15.92562
G1 X91.622 Y141.438 E15.9355
G1 X91.939 Y141.414 E15.9466
G1 X92.294 Y141.403 E15.959
G1 X142.641 Y141.401 E17.71728
G1 X142.961 Y141.409 E17.72846
G1 X143.256 Y141.426 E17.73878
G1 X143.392 Y141.438 E17.74354
G1 X143.675 Y141.471 E17.75349
G1 X143.982 Y141.518 E17.76434
G1 X144.336 Y141.587 E17.77694
G1 X144.656 Y141.665 E17.78844
G1 X144.987 Y141.76 E17.80047
G1 X145.347 Y141.882 E17.81374
G1 X145.688 Y142.016 E17.82654
G1 X145.977 Y142.144 E17.83757
G1 X146.091 Y142.199 E17.84199
G1 X146.342 Y142.327 E17.85183
G1 X146.634 Y142.49 E17.86351
G1 X146.894 Y142.649 E17.87416
G1 X147.198 Y142.854 E17.88696
G1 X147.308 Y142.934 E17.89171
G1 X147.529 Y143.103 E17.90143
G1 X147.783 Y143.312 E17.91291
G1 X148.021 Y143.524 E17.92405
G1 X148.109 Y143.608 E17.92829
G1 X148.302 Y143.8 E17.9378
G1 X148.535 Y144.051 E17.94976
G1 X148.767 Y144.325 E17.9623
G1 X148.982 Y144.602 E17.97455
G1 X149.194 Y144.901 E17.98735
G1 X149.38 Y145.192 E17.99941
G1 X149.556 Y145.494 E18.01161
G1 X149.717 Y145.803 E18.02378
G1 X149.87 Y146.131 E18.03642
G1 X150.007 Y146.466 E18.04906
G1 X150.118 Y146.77 E18.06036
G1 X150.223 Y147.104 E18.07259
G1 X150.315 Y147.448 E18.08503
G1 X150.39 Y147.783 E18.09702
G1 X150.45 Y148.127 E18.10921
G1 X150.486 Y148.365 E18.11762
G1 X150.512 Y148.82 E18.13353
G1 X150.458 Y149.272 E18.14943
G1 X150.327 Y149.708 E18.16533
G1 X150.121 Y150.115 E18.18126
G1 X149.847 Y150.479 E18.19717
G1 X149.514 Y150.79 E18.21308
G1 X149.132 Y151.038 E18.22899
G1 X148.713 Y151.216 E18.24489
G1 X148.268 Y151.318 E18.26083
G1 X147.914 Y151.342 E18.27322
G1 X146.113 Y151.343 E18.33612
G1 X145.66 Y151.303 E18.352
G1 X145.22 Y151.185 E18.36791
G1 X144.807 Y150.992 E18.38383
G1 X144.434 Y150.729 E18.39977
G1 X144.113 Y150.406 E18.41567
G1 X143.854 Y150.032 E18.43156
G1 X143.664 Y149.618 E18.44747
G1 X143.535 Y149.089 E18.46648
G1 X143.48 Y148.806 E18.47655
G1 X143.374 Y148.625 E18.48388
G1 X143.116 Y148.502 E18.49386
G1 X142.748 Y148.415 E18.50707
G1 X142.417 Y148.379 E18.51869
G1 X142.004 Y148.366 E18.53312
G1 X93.002 Y148.365 E20.24443
G1 X92.745 Y148.369 E20.2534
G1 X92.416 Y148.394 E20.26493
G1 X92.132 Y148.437 E20.27496
G1 X91.868 Y148.506 E20.28449
G1 X91.624 Y148.626 E20.29398
G1 X91.53 Y148.773 E20.30008
G1 X91.471 Y149.052 E20.31004
G1 X91.468 Y149.074 E20.31081
G1 X91.37 Y149.519 E20.32672
G1 X91.196 Y149.94 E20.34263
G1 X90.952 Y150.325 E20.35855
G1 X90.644 Y150.661 E20.37447
G1 X90.282 Y150.937 E20.39037
G1 X89.877 Y151.147 E20.4063
G1 X89.442 Y151.282 E20.42221
G1 X88.889 Y151.342 E20.44163
G1 X87.087 Y151.342 E20.50456
G1 X86.633 Y151.302 E20.52048
G1 X86.193 Y151.184 E20.53639
G1 X85.781 Y150.99 E20.55229
G1 X85.408 Y150.727 E20.56823
G1 X85.087 Y150.404 E20.58413
G1 X84.828 Y150.029 E20.60005
G1 X84.638 Y149.615 E20.61596
G1 X84.523 Y149.174 E20.63187
G1 X84.487 Y148.72 E20.64778
G1 X84.515 Y148.364 E20.66025
G1 X84.584 Y147.918 E20.67601
G1 X84.611 Y147.774 E20.68113
G1 X84.67 Y147.507 E20.69068
G1 X84.759 Y147.165 E20.70302
G1 X84.855 Y146.851 E20.71449
G1 X84.976 Y146.509 E20.72716
G1 X85.104 Y146.19 E20.73916
G1 X85.249 Y145.874 E20.7513
G1 X85.402 Y145.571 E20.76316
G1 X85.589 Y145.243 E20.77634
G1 X85.783 Y144.936 E20.78902
G1 X85.985 Y144.646 E20.80137
G1 X86.188 Y144.379 E20.81308
G1 X86.42 Y144.102 E20.8257
G1 X86.664 Y143.835 E20.83833
G1 X86.905 Y143.596 E20.85018
G1 X87.155 Y143.365 E20.86207
