;FLAVOR:Marlin
;TIME:3415
;Filament used: 2.31127m
;Layer height: 0.2
;MINX:96.6
;MINY:83.954
;MINZ:0.2
;MAXX:138.4
;MAXY:149.917
;MAXZ:12.8
;Generated with Cura_SteamEngine 4.12.1
M140 S60
M105
M190 S60
M104 S200
M105
M109 S200
M82 ;absolute extrusion mode
M201 X500.00 Y500.00 Z100.00 E5000.00 ;Setup machine max acceleration
M203 X500.00 Y500.00 Z10.00 E50.00 ;Setup machine max feedrate
M204 P500.00 R1000.00 T500.00 ;Setup Print/Retract/Travel acceleration
M205 X8.00 Y8.00 Z0.40 E5.00 ;Setup Jerk
M220 S100 ;Reset Feedrate
M221 S100 ;Reset Flowrate

G28 ;Home

G92 E0 ;Reset Extruder
G1 Z2.0 F3000 ;Move Z Axis up
G1 X10.1 Y20 Z0.28 F5000.0 ;Move to start position
G1 X10.1 Y200.0 Z0.28 F1500.0 E15 ;Draw the first line
G1 X10.4 Y200.0 Z0.28 F5000.0 ;Move to side a little
G1 X10.4 Y20 Z0.28 F1500.0 E30 ;Draw the second line
G92 E0 ;Reset Extruder
G1 Z2.0 F3000 ;Move Z Axis up

G92 E0
G92 E0
G1 F1800 E-3
;LAYER_COUNT:64
;LAYER:0
M107
G0 F6000 X99.832 Y87.917 Z0.2
;TYPE:SKIRT
G1 F1800 E0
G1 F1200 X100.037 Y87.699 E0.00995
G1 X100.708 Y87.044 E0.04114
G1 X101.432 Y86.449 E0.07231
G1 X102.205 Y85.917 E0.10352
G1 X102.718 Y85.614 E0.12334
G1 X103.059 Y85.425 E0.1363
G1 X103.897 Y85.006 E0.16747
G1 X104.551 Y84.738 E0.19097
G1 X104.653 Y84.7 E0.19459
G1 X105.545 Y84.41 E0.22579
G1 X106.458 Y84.198 E0.25696
G1 X106.999 Y84.11 E0.27519
G1 X107.298 Y84.069 E0.28523
G1 X108.072 Y83.991 E0.31111
G1 X108.7 Y83.964 E0.33201
G1 X109.499 Y83.954 E0.35859
G1 X125.587 Y83.956 E0.89368
G1 X126.441 Y83.969 E0.92209
G1 X127.393 Y84.025 E0.9538
G1 X127.481 Y84.034 E0.95675
G1 X128.409 Y84.169 E0.98794
G1 X129.03 Y84.305 E1.00908
G1 X129.242 Y84.358 E1.01635
G1 X130.141 Y84.624 E1.04753
G1 X131.269 Y85.082 E1.08802
G1 X131.536 Y85.208 E1.09784
G1 X132.366 Y85.644 E1.12903
G1 X133.419 Y86.339 E1.17099
G1 X133.545 Y86.433 E1.17622
G1 X134.272 Y87.026 E1.20742
G1 X134.949 Y87.681 E1.23875
G1 X135.114 Y87.855 E1.24673
G1 X135.73 Y88.562 E1.27792
G1 X136.372 Y89.456 E1.31452
G1 X136.496 Y89.648 E1.32213
G1 X136.971 Y90.457 E1.35333
G1 X137.456 Y91.497 E1.3915
G1 X137.54 Y91.705 E1.39896
G1 X137.853 Y92.589 E1.43015
G1 X138.138 Y93.727 E1.46917
G1 X138.178 Y93.933 E1.47615
G1 X138.352 Y95.242 E1.52007
G1 X138.364 Y95.409 E1.52564
G1 X138.391 Y96.085 E1.54814
G1 X138.399 Y96.885 E1.57475
G1 X138.4 Y111.427 E2.05842
G1 X138.398 Y111.64 E2.0655
G1 X138.373 Y112.935 E2.10858
G1 X138.338 Y113.622 E2.13146
G1 X138.247 Y114.717 E2.16801
G1 X138.194 Y115.264 E2.18628
G1 X138.023 Y117.762 E2.26956
G1 X137.922 Y120.282 E2.35344
G1 X137.893 Y122.805 E2.43737
G1 X137.934 Y125.293 E2.52013
G1 X138.048 Y127.823 E2.60436
G1 X138.237 Y130.407 E2.69054
G1 X138.336 Y131.54 E2.72836
G1 X138.359 Y131.854 E2.73883
G1 X138.369 Y132.024 E2.7445
G1 X138.383 Y132.345 E2.75518
G1 X138.395 Y132.751 E2.76869
G1 X138.4 Y133.074 E2.77944
G1 X138.4 Y138.023 E2.94404
G1 X138.39 Y138.756 E2.96843
G1 X138.337 Y139.692 E2.99961
G1 X138.205 Y140.621 E3.03082
G1 X137.994 Y141.535 E3.06201
G1 X137.706 Y142.427 E3.09319
G1 X137.343 Y143.292 E3.12439
G1 X136.908 Y144.123 E3.15559
G1 X136.403 Y144.913 E3.18677
G1 X135.833 Y145.658 E3.21797
G1 X134.914 Y146.631 E3.26249
G1 X134.882 Y146.661 E3.26395
G1 X134.171 Y147.273 E3.29515
G1 X133.785 Y147.564 E3.31123
G1 X133.553 Y147.731 E3.32073
G1 X132.769 Y148.246 E3.35193
G1 X131.945 Y148.692 E3.3831
G1 X130.821 Y149.164 E3.42364
G1 X130.591 Y149.246 E3.43177
G1 X129.695 Y149.523 E3.46296
G1 X128.779 Y149.723 E3.49414
G1 X127.753 Y149.852 E3.52854
G1 X127.407 Y149.879 E3.54008
G1 X126.686 Y149.911 E3.56408
G1 X126.143 Y149.917 E3.58214
G1 X108.84 Y149.915 E4.15764
G1 X108.353 Y149.908 E4.17384
G1 X108.01 Y149.898 E4.18526
G1 X107.659 Y149.882 E4.19694
G1 X106.725 Y149.799 E4.22813
G1 X105.801 Y149.637 E4.25933
G1 X105.218 Y149.492 E4.27931
G1 X104.991 Y149.429 E4.28715
G1 X104.099 Y149.14 E4.31833
G1 X103.235 Y148.776 E4.34952
G1 X102.47 Y148.378 E4.3782
G1 X102.276 Y148.267 E4.38563
G1 X101.483 Y147.767 E4.41681
G1 X100.735 Y147.201 E4.44801
G1 X100.127 Y146.66 E4.47508
G1 X100.006 Y146.544 E4.48066
G1 X99.357 Y145.866 E4.51187
G1 X98.768 Y145.136 E4.54307
G1 X98.244 Y144.358 E4.57427
G1 X97.788 Y143.539 E4.60545
G1 X97.403 Y142.684 E4.63663
G1 X97.092 Y141.799 E4.66783
G1 X96.858 Y140.891 E4.69902
G1 X96.703 Y139.966 E4.73021
G1 X96.62 Y138.806 E4.76889
G1 X96.602 Y137.831 E4.80133
G1 X96.6 Y137.628 E4.80808
G1 X96.6 Y133.743 E4.9373
G1 X96.602 Y133.531 E4.94435
G1 X96.627 Y132.234 E4.98749
G1 X96.662 Y131.547 E5.01037
G1 X96.753 Y130.452 E5.04692
G1 X96.806 Y129.905 E5.0652
G1 X96.977 Y127.407 E5.14848
G1 X97.078 Y124.887 E5.23236
G1 X97.107 Y122.364 E5.31628
G1 X97.066 Y119.876 E5.39904
G1 X96.952 Y117.346 E5.48328
G1 X96.763 Y114.762 E5.56945
G1 X96.664 Y113.629 E5.60728
G1 X96.641 Y113.315 E5.61775
G1 X96.631 Y113.145 E5.62341
G1 X96.617 Y112.826 E5.63403
G1 X96.605 Y112.422 E5.64748
G1 X96.6 Y112.095 E5.65835
G1 X96.601 Y96.641 E6.17235
G1 X96.607 Y96.26 E6.18503
G1 X96.62 Y95.881 E6.19764
G1 X96.639 Y95.503 E6.21023
G1 X96.761 Y94.33 E6.24945
G1 X96.798 Y94.097 E6.2573
G1 X96.985 Y93.178 E6.28849
G1 X97.249 Y92.278 E6.31969
G1 X97.43 Y91.783 E6.33722
G1 X97.505 Y91.593 E6.34401
G1 X97.887 Y90.736 E6.37522
G1 X98.319 Y89.949 E6.40508
G1 X98.427 Y89.77 E6.41203
G1 X98.945 Y88.989 E6.4432
G1 X99.832 Y87.917 E6.48948
G0 F6000 X100.123 Y88.191
G1 F1200 X100.328 Y87.973 E6.49943
G1 X100.987 Y87.331 E6.53003
G1 X101.7 Y86.748 E6.56067
G1 X102.46 Y86.229 E6.59128
G1 X102.911 Y85.964 E6.60868
G1 X103.252 Y85.775 E6.62164
G1 X104.076 Y85.364 E6.65227
G1 X104.69 Y85.113 E6.67433
G1 X104.792 Y85.075 E6.67795
G1 X105.668 Y84.791 E6.70858
G1 X106.565 Y84.585 E6.73919
G1 X107.053 Y84.506 E6.75563
G1 X107.352 Y84.465 E6.76567
G1 X108.098 Y84.39 E6.79061
G1 X108.705 Y84.364 E6.81082
G1 X109.499 Y84.354 E6.83723
G1 X125.581 Y84.356 E7.37212
G1 X126.435 Y84.369 E7.40052
G1 X127.352 Y84.423 E7.43108
G1 X127.44 Y84.432 E7.43402
G1 X128.351 Y84.565 E7.46464
G1 X128.933 Y84.693 E7.48446
G1 X129.145 Y84.746 E7.49173
G1 X130.028 Y85.008 E7.52236
G1 X131.098 Y85.444 E7.56079
G1 X131.365 Y85.57 E7.57061
G1 X132.18 Y85.999 E7.60124
G1 X133.179 Y86.66 E7.64109
G1 X133.305 Y86.754 E7.64631
G1 X134.019 Y87.336 E7.67695
G1 X134.659 Y87.956 E7.70659
G1 X134.824 Y88.13 E7.71456
G1 X135.427 Y88.825 E7.74517
G1 X136.036 Y89.673 E7.77989
G1 X136.16 Y89.865 E7.78749
G1 X136.626 Y90.66 E7.81814
G1 X137.085 Y91.647 E7.85435
G1 X137.169 Y91.855 E7.86181
G1 X137.476 Y92.723 E7.89243
G1 X137.746 Y93.803 E7.92946
G1 X137.786 Y94.009 E7.93644
G1 X137.953 Y95.27 E7.97874
G1 X137.965 Y95.437 E7.98431
G1 X137.991 Y96.089 E8.00602
G1 X137.999 Y96.885 E8.03249
G1 X138 Y111.427 E8.51616
G1 X137.998 Y111.633 E8.52301
G1 X137.973 Y112.928 E8.56609
G1 X137.94 Y113.589 E8.5881
G1 X137.864 Y114.516 E8.61904
G1 X137.795 Y115.233 E8.643
G1 X137.625 Y117.717 E8.72581
G1 X137.522 Y120.296 E8.81166
G1 X137.493 Y122.772 E8.89401
G1 X137.536 Y125.353 E8.97987
G1 X137.647 Y127.835 E9.0625
G1 X137.835 Y130.403 E9.14814
G1 X137.938 Y131.575 E9.18728
G1 X137.96 Y131.878 E9.19738
G1 X137.97 Y132.048 E9.20304
G1 X137.983 Y132.357 E9.21333
G1 X137.995 Y132.763 E9.22684
G1 X138 Y133.074 E9.23719
G1 X138 Y138.018 E9.40162
G1 X137.99 Y138.751 E9.42601
G1 X137.937 Y139.67 E9.45662
G1 X137.805 Y140.581 E9.48724
G1 X137.595 Y141.477 E9.51785
G1 X137.307 Y142.352 E9.54849
G1 X136.945 Y143.198 E9.57909
G1 X136.51 Y144.01 E9.60973
G1 X136.007 Y144.781 E9.64035
G1 X135.439 Y145.505 E9.67096
G1 X134.641 Y146.339 E9.70935
G1 X134.609 Y146.369 E9.71081
G1 X133.552 Y147.239 E9.75634
G1 X133.32 Y147.406 E9.76585
G1 X132.55 Y147.911 E9.79647
G1 X131.739 Y148.347 E9.8271
G1 X130.687 Y148.787 E9.86502
G1 X130.457 Y148.869 E9.87315
G1 X129.577 Y149.141 E9.90378
G1 X128.677 Y149.335 E9.9344
G1 X127.722 Y149.453 E9.96641
G1 X127.376 Y149.48 E9.97795
G1 X126.681 Y149.511 E10.00109
G1 X126.143 Y149.517 E10.01898
G1 X108.846 Y149.515 E10.59429
G1 X108.359 Y149.508 E10.61048
G1 X108.028 Y149.498 E10.6215
G1 X107.677 Y149.482 E10.63319
G1 X106.76 Y149.4 E10.66381
G1 X105.854 Y149.239 E10.69441
G1 X105.325 Y149.107 E10.71255
G1 X105.098 Y149.044 E10.72038
G1 X104.223 Y148.759 E10.75099
G1 X103.375 Y148.4 E10.78162
G1 X102.669 Y148.03 E10.80813
G1 X102.475 Y147.919 E10.81556
G1 X101.696 Y147.428 E10.84619
G1 X100.963 Y146.871 E10.87681
G1 X100.403 Y146.371 E10.90178
G1 X100.282 Y146.255 E10.90735
G1 X99.646 Y145.589 E10.93798
G1 X99.07 Y144.871 E10.9686
G1 X98.558 Y144.106 E10.99921
G1 X98.115 Y143.299 E11.02983
G1 X97.743 Y142.457 E11.06045
G1 X97.446 Y141.585 E11.09109
G1 X97.226 Y140.691 E11.12171
G1 X97.084 Y139.782 E11.15231
G1 X97.02 Y138.799 E11.18508
G1 X97 Y137.628 E11.22403
G1 X97 Y133.743 E11.35324
G1 X97.002 Y133.539 E11.36003
G1 X97.027 Y132.242 E11.40318
G1 X97.06 Y131.58 E11.42522
G1 X97.136 Y130.653 E11.45616
G1 X97.205 Y129.936 E11.48011
G1 X97.375 Y127.452 E11.56293
G1 X97.478 Y124.873 E11.64877
G1 X97.507 Y122.397 E11.73113
G1 X97.464 Y119.816 E11.81699
G1 X97.353 Y117.334 E11.89962
G1 X97.165 Y114.766 E11.98526
G1 X97.062 Y113.594 E12.02439
G1 X97.04 Y113.291 E12.0345
G1 X97.03 Y113.121 E12.04016
G1 X97.017 Y112.814 E12.05038
G1 X97.005 Y112.41 E12.06382
G1 X97 Y112.095 E12.0743
G1 X97.001 Y96.647 E12.5881
G1 X97.007 Y96.266 E12.60078
G1 X97.019 Y95.901 E12.61292
G1 X97.038 Y95.523 E12.62551
G1 X97.156 Y94.393 E12.6633
G1 X97.193 Y94.16 E12.67115
G1 X97.377 Y93.257 E12.7018
G1 X97.638 Y92.375 E12.73239
G1 X97.802 Y91.93 E12.74817
G1 X97.877 Y91.74 E12.75496
G1 X98.252 Y90.899 E12.78559
G1 X98.661 Y90.156 E12.8138
G1 X98.769 Y89.977 E12.82075
G1 X99.278 Y89.21 E12.85137
G1 X100.123 Y88.191 E12.89539
G0 F6000 X100.414 Y88.465
G1 F1200 X100.619 Y88.247 E12.90535
G1 X101.267 Y87.618 E12.93538
G1 X101.967 Y87.047 E12.96543
G1 X102.715 Y86.541 E12.99547
G1 X103.105 Y86.314 E13.01047
G1 X103.446 Y86.125 E13.02344
G1 X104.255 Y85.722 E13.0535
G1 X104.83 Y85.488 E13.07415
G1 X104.932 Y85.45 E13.07777
G1 X105.792 Y85.172 E13.10783
G1 X107.107 Y84.903 E13.15247
G1 X107.406 Y84.862 E13.16251
G1 X108.125 Y84.789 E13.18655
G1 X108.711 Y84.764 E13.20606
G1 X109.499 Y84.754 E13.23227
G1 X125.575 Y84.756 E13.76696
G1 X126.429 Y84.769 E13.79537
G1 X127.312 Y84.821 E13.82479
G1 X127.4 Y84.83 E13.82773
G1 X128.293 Y84.961 E13.85775
G1 X128.836 Y85.082 E13.87625
G1 X129.048 Y85.135 E13.88352
G1 X129.913 Y85.392 E13.91353
G1 X130.927 Y85.806 E13.94996
G1 X131.194 Y85.932 E13.95978
G1 X131.993 Y86.353 E13.98982
G1 X132.94 Y86.98 E14.02759
G1 X133.066 Y87.074 E14.03282
G1 X133.765 Y87.646 E14.06286
G1 X134.368 Y88.231 E14.09081
G1 X134.533 Y88.405 E14.09878
G1 X135.125 Y89.088 E14.12884
G1 X135.7 Y89.89 E14.16167
G1 X135.824 Y90.082 E14.16927
G1 X136.28 Y90.862 E14.19932
G1 X136.714 Y91.796 E14.23357
G1 X136.798 Y92.004 E14.24103
G1 X137.099 Y92.856 E14.27109
G1 X137.353 Y93.88 E14.30618
G1 X137.393 Y94.086 E14.31316
G1 X137.554 Y95.299 E14.35386
G1 X137.566 Y95.466 E14.35943
G1 X137.591 Y96.093 E14.3803
G1 X137.599 Y96.885 E14.40664
G1 X137.6 Y111.427 E14.89031
G1 X137.598 Y111.625 E14.89689
G1 X137.573 Y112.92 E14.93997
G1 X137.541 Y113.556 E14.96115
G1 X137.451 Y114.639 E14.9973
G1 X137.396 Y115.201 E15.01608
G1 X137.225 Y117.709 E15.09969
G1 X137.122 Y120.275 E15.18511
G1 X137.093 Y122.774 E15.26823
G1 X137.136 Y125.342 E15.35365
G1 X137.25 Y127.881 E15.43818
G1 X137.439 Y130.468 E15.52446
G1 X137.539 Y131.61 E15.56259
G1 X137.56 Y131.901 E15.57229
G1 X137.584 Y132.369 E15.58788
G1 X137.596 Y132.775 E15.60139
G1 X137.6 Y133.074 E15.61133
G1 X137.6 Y138.012 E15.77557
G1 X137.59 Y138.745 E15.79995
G1 X137.538 Y139.647 E15.83
G1 X137.406 Y140.54 E15.86003
G1 X137.196 Y141.418 E15.89005
G1 X136.908 Y142.275 E15.92012
G1 X136.547 Y143.102 E15.95014
G1 X136.113 Y143.894 E15.98017
G1 X135.611 Y144.645 E16.01022
G1 X135.045 Y145.349 E16.04026
G1 X134.367 Y146.047 E16.07263
G1 X134.335 Y146.077 E16.07409
G1 X133.318 Y146.914 E16.11789
G1 X133.086 Y147.081 E16.1274
G1 X132.33 Y147.576 E16.15746
G1 X131.534 Y148.002 E16.18749
G1 X130.552 Y148.411 E16.22287
G1 X130.322 Y148.493 E16.23099
G1 X129.459 Y148.758 E16.26101
G1 X128.576 Y148.946 E16.29104
G1 X127.691 Y149.054 E16.32069
G1 X127.345 Y149.081 E16.33224
G1 X126.676 Y149.111 E16.35451
G1 X126.143 Y149.117 E16.37224
G1 X108.851 Y149.115 E16.94737
G1 X108.364 Y149.108 E16.96357
G1 X108.047 Y149.098 E16.97412
G1 X107.696 Y149.082 E16.98581
G1 X106.796 Y149.001 E17.01586
G1 X105.907 Y148.841 E17.04591
G1 X105.432 Y148.722 E17.06219
G1 X105.205 Y148.659 E17.07003
G1 X104.347 Y148.379 E17.10005
G1 X103.516 Y148.024 E17.1301
G1 X102.867 Y147.683 E17.15449
G1 X102.673 Y147.572 E17.16192
G1 X101.91 Y147.09 E17.19194
G1 X101.193 Y146.541 E17.22197
G1 X100.68 Y146.082 E17.24487
G1 X100.559 Y145.966 E17.25044
G1 X99.936 Y145.313 E17.28046
G1 X99.372 Y144.607 E17.31052
G1 X98.873 Y143.854 E17.34056
G1 X98.443 Y143.06 E17.37059
G1 X98.085 Y142.231 E17.40063
G1 X97.801 Y141.374 E17.43066
G1 X97.595 Y140.494 E17.46072
G1 X97.467 Y139.6 E17.49075
G1 X97.42 Y138.791 E17.51771
G1 X97.4 Y137.628 E17.55639
G1 X97.4 Y133.743 E17.68561
G1 X97.402 Y133.546 E17.69216
G1 X97.427 Y132.249 E17.73531
G1 X97.459 Y131.613 E17.75649
G1 X97.549 Y130.53 E17.79263
G1 X97.604 Y129.968 E17.81142
G1 X97.775 Y127.46 E17.89503
G1 X97.878 Y124.894 E17.98044
G1 X97.907 Y122.395 E18.06356
G1 X97.864 Y119.827 E18.14899
G1 X97.75 Y117.288 E18.23352
G1 X97.561 Y114.701 E18.31979
G1 X97.461 Y113.559 E18.35792
G1 X97.44 Y113.268 E18.36762
G1 X97.416 Y112.802 E18.38314
G1 X97.404 Y112.398 E18.39659
G1 X97.4 Y112.095 E18.40667
G1 X97.401 Y96.653 E18.92027
G1 X97.407 Y96.272 E18.93294
G1 X97.419 Y95.921 E18.94462
G1 X97.438 Y95.543 E18.95721
G1 X97.551 Y94.455 E18.99359
G1 X97.588 Y94.222 E19.00144
G1 X97.769 Y93.338 E19.03145
G1 X98.174 Y92.077 E19.0755
G1 X98.249 Y91.887 E19.0823
G1 X98.618 Y91.062 E19.11236
G1 X99.004 Y90.363 E19.13891
G1 X99.112 Y90.184 E19.14587
G1 X99.612 Y89.432 E19.1759
G1 X100.414 Y88.465 E19.21769
G1 F1800 E16.21769
;MESH:[a]_guidler_mirror.stl
G0 F6000 X106.97 Y95.812
G0 X108.019 Y96.165
G0 X110.469 Y100.791
G0 X110.732 Y101.124
G0 X112.103 Y102.565
;TYPE:WALL-INNER
G1 F1800 E19.21769
G1 F1200 X112.707 Y102.603 E19.23782
G1 X113.236 Y102.535 E19.25556
G1 X113.621 Y102.423 E19.26889
G1 X114.106 Y102.199 E19.28666
G1 X114.597 Y101.845 E19.30679
G1 X115.012 Y101.394 E19.32718
G1 X115.32 Y100.871 E19.34737
G1 X115.502 Y100.369 E19.36513
G1 X115.577 Y99.973 E19.37853
G1 X115.599 Y99.446 E19.39607
G1 X115.507 Y98.843 E19.41636
G1 X115.294 Y98.271 E19.43666
G1 X115.016 Y97.821 E19.45426
G1 X114.759 Y97.516 E19.46752
G1 X114.358 Y97.167 E19.4852
G1 X113.831 Y96.858 E19.50552
G1 X113.247 Y96.666 E19.52597
G1 X112.647 Y96.597 E19.54606
G1 X112.117 Y96.637 E19.56373
G1 X111.722 Y96.729 E19.57722
G1 X111.229 Y96.928 E19.59491
G1 X110.718 Y97.257 E19.61512
G1 X110.283 Y97.688 E19.63549
G1 X109.948 Y98.192 E19.65562
G1 X109.734 Y98.702 E19.67401
G1 X109.612 Y99.29 E19.69398
G1 X109.611 Y99.907 E19.71451
G1 X109.736 Y100.505 E19.73483
G1 X109.976 Y101.063 E19.75503
G1 X110.278 Y101.502 E19.77275
G1 X110.554 Y101.796 E19.78616
G1 X110.971 Y102.123 E19.80379
G1 X111.511 Y102.402 E19.824
G1 X112.103 Y102.565 E19.84443
G0 F6000 X112.169 Y102.168
G1 F1200 X112.694 Y102.201 E19.86192
G1 X113.154 Y102.142 E19.87735
G1 X113.481 Y102.047 E19.88867
G1 X113.903 Y101.852 E19.90414
G1 X114.33 Y101.544 E19.92165
G1 X114.689 Y101.154 E19.93928
G1 X114.957 Y100.7 E19.95681
G1 X115.115 Y100.263 E19.97227
G1 X115.179 Y99.927 E19.98364
G1 X115.198 Y99.468 E19.99892
G1 X115.118 Y98.944 E20.01655
G1 X114.933 Y98.448 E20.03416
G1 X114.691 Y98.056 E20.04948
G1 X114.473 Y97.797 E20.06074
G1 X114.124 Y97.493 E20.07614
G1 X113.666 Y97.225 E20.09379
G1 X113.161 Y97.059 E20.11147
G1 X112.639 Y96.999 E20.12894
G1 X112.178 Y97.034 E20.14432
G1 X111.843 Y97.112 E20.15576
G1 X111.414 Y97.285 E20.17115
G1 X110.97 Y97.571 E20.18871
G1 X110.593 Y97.944 E20.20635
G1 X110.302 Y98.382 E20.22384
G1 X110.118 Y98.821 E20.23967
G1 X110.012 Y99.331 E20.257
G1 X110.011 Y99.866 E20.27479
G1 X110.119 Y100.384 E20.29239
