;FLAVOR:Marlin
;TIME:6812
;Filament used: 5.45262m
;Layer height: 0.2
;MINX:42.2
;MINY:42.2
;MINZ:0.2
;MAXX:192.8
;MAXY:192.8
;MAXZ:8.4
;Generated with Cura_SteamEngine 4.12.1
M140 S80
M105
M190 S80
M104 S230
M105
M109 S230
M82 ;absolute extrusion mode
M201 X500.00 Y500.00 Z100.00 E5000.00 ;Setup machine max acceleration
M203 X500.00 Y500.00 Z10.00 E50.00 ;Setup machine max feedrate
M204 P500.00 R1000.00 T500.00 ;Setup Print/Retract/Travel acceleration
M205 X8.00 Y8.00 Z0.40 E5.00 ;Setup Jerk
M220 S100 ;Reset Feedrate
M221 S100 ;Reset Flowrate

G28 ;Home

G92 E0 ;Reset Extruder
G1 Z2.0 F3000 ;Move Z Axis up
G1 X10.1 Y20 Z0.28 F5000.0 ;Move to start position
G1 X10.1 Y200.0 Z0.28 F1500.0 E15 ;Draw the first line
G1 X10.4 Y200.0 Z0.28 F5000.0 ;Move to side a little
G1 X10.4 Y20 Z0.28 F1500.0 E30 ;Draw the second line
G92 E0 ;Reset Extruder
G1 Z2.0 F3000 ;Move Z Axis up

G92 E0
G92 E0
G1 F1800 E-4.5
;LAYER_COUNT:42
;LAYER:0
M107
G0 F6000 X47.427 Y47.421 Z0.2
;TYPE:SKIRT
G1 F1800 E0
G1 F1200 X47.902 Y46.965 E0.0219
G1 X48.288 Y46.612 E0.0393
G1 X48.445 Y46.475 E0.04623
G1 X49.091 Y45.953 E0.07385
G1 X49.507 Y45.642 E0.09113
G1 X50.062 Y45.253 E0.11367
G1 X50.425 Y45.015 E0.12811
G1 X50.817 Y44.769 E0.1435
G1 X51.023 Y44.646 E0.15148
G1 X51.365 Y44.45 E0.16459
G1 X51.772 Y44.232 E0.17995
G1 X52.008 Y44.112 E0.18875
G1 X52.352 Y43.945 E0.20147
G1 X52.7 Y43.783 E0.21424
G1 X53.208 Y43.561 E0.23268
G1 X53.388 Y43.488 E0.23914
G1 X53.916 Y43.29 E0.25789
G1 X54.501 Y43.087 E0.27849
G1 X55.173 Y42.878 E0.30189
G1 X55.397 Y42.816 E0.30963
G1 X55.864 Y42.697 E0.32565
G1 X56.203 Y42.619 E0.33722
G1 X56.81 Y42.497 E0.35782
G1 X56.979 Y42.468 E0.36352
G1 X57.351 Y42.411 E0.37604
G1 X57.578 Y42.38 E0.38366
G1 X57.922 Y42.339 E0.39518
G1 X58.4 Y42.289 E0.41116
G1 X58.968 Y42.244 E0.43012
G1 X59.197 Y42.232 E0.43774
G1 X59.591 Y42.218 E0.45086
G1 X60.56 Y42.202 E0.48309
G1 X174.185 Y42.2 E4.26227
G1 X174.39 Y42.202 E4.26909
G1 X175.514 Y42.223 E4.30648
G1 X175.909 Y42.237 E4.31963
G1 X176.22 Y42.254 E4.32999
G1 X176.813 Y42.303 E4.34978
G1 X177.253 Y42.356 E4.36452
G1 X177.532 Y42.395 E4.37389
G1 X177.917 Y42.456 E4.38685
G1 X178.252 Y42.515 E4.39817
G1 X178.684 Y42.599 E4.4128
G1 X179.127 Y42.701 E4.42792
G1 X179.485 Y42.791 E4.4402
G1 X179.865 Y42.894 E4.4533
G1 X180.141 Y42.974 E4.46285
G1 X180.844 Y43.203 E4.48744
G1 X181.286 Y43.364 E4.50309
G1 X181.831 Y43.579 E4.52258
G1 X182.094 Y43.691 E4.53208
G1 X182.609 Y43.927 E4.55093
G1 X183.031 Y44.133 E4.56654
G1 X183.704 Y44.49 E4.59188
G1 X184.061 Y44.696 E4.60559
G1 X184.708 Y45.101 E4.63098
G1 X185.14 Y45.392 E4.6483
G1 X185.772 Y45.85 E4.67426
G1 X186.107 Y46.112 E4.68841
G1 X186.414 Y46.362 E4.70158
G1 X186.591 Y46.511 E4.70927
G1 X187.133 Y46.998 E4.73351
G1 X187.422 Y47.276 E4.74684
G1 X187.724 Y47.578 E4.76105
G1 X188.027 Y47.893 E4.77559
G1 X188.367 Y48.264 E4.79232
G1 X188.496 Y48.411 E4.79883
G1 X189.03 Y49.069 E4.82701
G1 X189.35 Y49.496 E4.84476
G1 X189.748 Y50.063 E4.8678
G1 X189.98 Y50.417 E4.88188
G1 X190.212 Y50.788 E4.89643
G1 X190.341 Y51.003 E4.90477
G1 X190.55 Y51.365 E4.91868
G1 X190.758 Y51.752 E4.93329
G1 X190.873 Y51.977 E4.94169
G1 X191.052 Y52.343 E4.95524
G1 X191.219 Y52.702 E4.96841
G1 X191.439 Y53.208 E4.98676
G1 X191.512 Y53.388 E4.99323
G1 X191.71 Y53.916 E5.01198
G1 X191.913 Y54.501 E5.03258
G1 X192.125 Y55.182 E5.0563
G1 X192.181 Y55.385 E5.0633
G1 X192.304 Y55.873 E5.08004
G1 X192.386 Y56.234 E5.09235
G1 X192.495 Y56.777 E5.11077
G1 X192.531 Y56.983 E5.11773
G1 X192.591 Y57.37 E5.13076
G1 X192.617 Y57.558 E5.13707
G1 X192.661 Y57.921 E5.14923
G1 X192.711 Y58.399 E5.16521
G1 X192.756 Y58.97 E5.18426
G1 X192.768 Y59.2 E5.19193
G1 X192.781 Y59.591 E5.20494
G1 X192.799 Y60.741 E5.24319
G1 X192.8 Y174.185 E9.01635
G1 X192.798 Y174.39 E9.02317
G1 X192.777 Y175.514 E9.06056
G1 X192.763 Y175.907 E9.07364
G1 X192.746 Y176.219 E9.08404
G1 X192.696 Y176.825 E9.10426
G1 X192.644 Y177.253 E9.1186
G1 X192.605 Y177.532 E9.12797
G1 X192.544 Y177.917 E9.14093
G1 X192.485 Y178.252 E9.15225
G1 X192.401 Y178.684 E9.16689
G1 X192.299 Y179.127 E9.18201
G1 X192.209 Y179.485 E9.19428
G1 X192.113 Y179.841 E9.20655
G1 X192.038 Y180.102 E9.21558
G1 X191.805 Y180.82 E9.24069
G1 X191.639 Y181.277 E9.25686
G1 X191.427 Y181.816 E9.27612
G1 X191.318 Y182.073 E9.28541
G1 X191.075 Y182.605 E9.30486
G1 X190.866 Y183.033 E9.3207
G1 X190.51 Y183.704 E9.34596
G1 X190.304 Y184.061 E9.35967
G1 X189.899 Y184.708 E9.38506
G1 X189.608 Y185.14 E9.40239
G1 X189.15 Y185.772 E9.42834
G1 X188.888 Y186.107 E9.44249
G1 X188.638 Y186.414 E9.45566
G1 X188.489 Y186.591 E9.46335
G1 X188.002 Y187.133 E9.48759
G1 X187.724 Y187.422 E9.50093
G1 X187.434 Y187.712 E9.51457
G1 X187.15 Y187.986 E9.52769
G1 X186.589 Y188.491 E9.5528
G1 X186.351 Y188.691 E9.56314
G1 X186.022 Y188.957 E9.57721
G1 X185.78 Y189.145 E9.5874
G1 X185.446 Y189.395 E9.60128
G1 X185.058 Y189.668 E9.61706
G1 X184.818 Y189.829 E9.62667
G1 X184.544 Y190.007 E9.63754
G1 X184.369 Y190.117 E9.64441
G1 X183.986 Y190.347 E9.65927
G1 X183.679 Y190.523 E9.67104
G1 X183.053 Y190.856 E9.69462
G1 X182.629 Y191.064 E9.71033
G1 X182.198 Y191.264 E9.72613
G1 X181.847 Y191.414 E9.73883
G1 X181.466 Y191.57 E9.75252
G1 X180.798 Y191.818 E9.77622
G1 X180.509 Y191.915 E9.78636
G1 X179.998 Y192.073 E9.80415
G1 X179.658 Y192.169 E9.8159
G1 X179.136 Y192.303 E9.83383
G1 X178.797 Y192.381 E9.8454
G1 X178.19 Y192.503 E9.86599
G1 X178.021 Y192.532 E9.87169
G1 X177.649 Y192.589 E9.88421
G1 X177.422 Y192.62 E9.89183
G1 X177.078 Y192.661 E9.90335
G1 X176.6 Y192.711 E9.91934
G1 X176.032 Y192.756 E9.93829
G1 X175.803 Y192.768 E9.94592
G1 X175.409 Y192.782 E9.95903
G1 X174.44 Y192.798 E9.99126
G1 X60.815 Y192.8 E13.77044
G1 X60.61 Y192.798 E13.77726
G1 X59.486 Y192.777 E13.81465
G1 X59.093 Y192.763 E13.82773
G1 X58.781 Y192.746 E13.83813
G1 X58.175 Y192.696 E13.85835
G1 X57.747 Y192.644 E13.87269
G1 X57.468 Y192.605 E13.88206
G1 X57.083 Y192.544 E13.89503
G1 X56.748 Y192.485 E13.90634
G1 X56.316 Y192.401 E13.92098
G1 X55.873 Y192.299 E13.9361
G1 X55.515 Y192.209 E13.94837
G1 X55.135 Y192.106 E13.96147
G1 X54.859 Y192.026 E13.97103
G1 X54.156 Y191.797 E13.99562
G1 X53.714 Y191.636 E14.01126
G1 X53.169 Y191.421 E14.03075
G1 X52.906 Y191.309 E14.04026
G1 X52.39 Y191.073 E14.05913
G1 X51.966 Y190.866 E14.07482
G1 X51.291 Y190.507 E14.10025
G1 X50.936 Y190.302 E14.11389
G1 X50.273 Y189.887 E14.1399
G1 X49.769 Y189.546 E14.16014
G1 X49.02 Y188.991 E14.19115
G1 X48.645 Y188.688 E14.20718
G1 X48.309 Y188.405 E14.22179
G1 X48.107 Y188.228 E14.23072
G1 X47.419 Y187.571 E14.26237
G1 X46.991 Y187.125 E14.28293
G1 X46.516 Y186.597 E14.30655
G1 X46.318 Y186.362 E14.31677
G1 X46.047 Y186.027 E14.3311
G1 X45.858 Y185.784 E14.34134
G1 X45.594 Y185.431 E14.356
G1 X45.338 Y185.067 E14.3708
G1 X45.176 Y184.826 E14.38046
G1 X44.983 Y184.529 E14.39224
G1 X44.874 Y184.355 E14.39907
G1 X44.651 Y183.983 E14.41349
G1 X44.474 Y183.674 E14.42534
G1 X44.144 Y183.051 E14.44879
G1 X43.934 Y182.623 E14.46464
G1 X43.72 Y182.16 E14.48161
G1 X43.586 Y181.847 E14.49293
G1 X43.43 Y181.466 E14.50663
G1 X43.181 Y180.797 E14.53037
G1 X43.079 Y180.493 E14.54103
G1 X42.915 Y179.96 E14.55958
G1 X42.824 Y179.635 E14.57081
G1 X42.697 Y179.136 E14.58793
G1 X42.619 Y178.797 E14.5995
G1 X42.497 Y178.19 E14.62009
G1 X42.468 Y178.021 E14.6258
G1 X42.412 Y177.653 E14.63818
G1 X42.379 Y177.412 E14.64627
G1 X42.335 Y177.052 E14.65833
G1 X42.287 Y176.588 E14.67385
G1 X42.244 Y176.032 E14.69239
G1 X42.232 Y175.803 E14.70002
G1 X42.218 Y175.404 E14.7133
G1 X42.202 Y174.411 E14.74633
G1 X42.2 Y60.815 E18.52455
G1 X42.202 Y60.61 E18.53137
G1 X42.223 Y59.486 E18.56876
G1 X42.237 Y59.093 E18.58184
G1 X42.254 Y58.781 E18.59223
G1 X42.304 Y58.175 E18.61246
G1 X42.356 Y57.747 E18.6268
G1 X42.395 Y57.468 E18.63617
G1 X42.456 Y57.083 E18.64913
G1 X42.515 Y56.748 E18.66044
G1 X42.599 Y56.316 E18.67508
G1 X42.701 Y55.874 E18.69017
G1 X42.796 Y55.496 E18.70313
G1 X42.91 Y55.077 E18.71757
G1 X42.989 Y54.808 E18.7269
G1 X43.213 Y54.128 E18.75071
G1 X43.37 Y53.699 E18.76591
G1 X43.585 Y53.155 E18.78536
G1 X43.697 Y52.893 E18.79484
G1 X43.927 Y52.391 E18.8132
G1 X44.134 Y51.967 E18.8289
G1 X44.487 Y51.304 E18.85388
G1 X44.692 Y50.948 E18.86754
G1 X45.113 Y50.273 E18.894
G1 X45.454 Y49.769 E18.91424
G1 X46.008 Y49.021 E18.9452
G1 X46.302 Y48.657 E18.96076
G1 X46.573 Y48.334 E18.97479
G1 X46.759 Y48.121 E18.98419
G1 X47.427 Y47.421 E19.01637
G0 F6000 X47.704 Y47.709
G1 F1200 X48.179 Y47.253 E19.03827
G1 X48.551 Y46.913 E19.05504
G1 X48.708 Y46.776 E19.06197
G1 X49.33 Y46.273 E19.08857
G1 X49.746 Y45.962 E19.10585
G1 X50.281 Y45.587 E19.12758
G1 X50.644 Y45.349 E19.14202
G1 X51.022 Y45.113 E19.15684
G1 X51.465 Y44.852 E19.17394
G1 X51.561 Y44.798 E19.1776
G1 X51.954 Y44.588 E19.19242
G1 X52.19 Y44.468 E19.20123
G1 X52.52 Y44.307 E19.21344
G1 X52.868 Y44.145 E19.22621
G1 X53.358 Y43.932 E19.24398
G1 X53.538 Y43.859 E19.25044
G1 X54.047 Y43.668 E19.26852
G1 X54.632 Y43.465 E19.28912
G1 X55.279 Y43.263 E19.31166
G1 X55.503 Y43.201 E19.31939
G1 X55.954 Y43.087 E19.33486
G1 X56.293 Y43.009 E19.34643
G1 X56.877 Y42.892 E19.36624
G1 X57.046 Y42.863 E19.37194
G1 X57.405 Y42.807 E19.38403
G1 X57.632 Y42.776 E19.39165
G1 X57.963 Y42.737 E19.40274
G1 X58.441 Y42.687 E19.41872
G1 X58.989 Y42.644 E19.437
G1 X59.218 Y42.632 E19.44463
G1 X59.598 Y42.618 E19.45728
G1 X60.567 Y42.602 E19.48951
G1 X174.185 Y42.6 E23.26846
G1 X174.383 Y42.602 E23.27505
G1 X175.507 Y42.623 E23.31244
G1 X175.888 Y42.637 E23.32512
G1 X176.199 Y42.654 E23.33548
G1 X176.77 Y42.701 E23.35453
G1 X177.197 Y42.752 E23.36884
G1 X177.476 Y42.791 E23.37821
G1 X177.848 Y42.85 E23.39073
G1 X178.183 Y42.909 E23.40205
G1 X178.603 Y42.991 E23.41628
G1 X179.029 Y43.089 E23.43082
G1 X179.387 Y43.179 E23.4431
G1 X179.754 Y43.278 E23.45574
G1 X180.03 Y43.358 E23.4653
G1 X180.707 Y43.579 E23.48898
G1 X181.149 Y43.74 E23.50463
G1 X181.674 Y43.947 E23.5234
G1 X181.937 Y44.059 E23.53291
G1 X182.434 Y44.286 E23.55108
G1 X182.856 Y44.492 E23.5667
G1 X183.504 Y44.837 E23.59112
G1 X183.861 Y45.043 E23.60482
G1 X184.485 Y45.433 E23.6293
G1 X184.917 Y45.724 E23.64662
G1 X185.525 Y46.165 E23.6716
G1 X185.86 Y46.427 E23.68575
G1 X186.156 Y46.668 E23.69845
G1 X186.333 Y46.817 E23.70614
G1 X186.856 Y47.287 E23.72953
G1 X187.145 Y47.565 E23.74286
G1 X187.435 Y47.856 E23.75653
G1 X187.738 Y48.171 E23.77107
G1 X188.066 Y48.527 E23.78717
G1 X188.195 Y48.674 E23.79367
G1 X188.71 Y49.309 E23.82086
G1 X189.03 Y49.736 E23.83861
G1 X189.414 Y50.283 E23.86084
G1 X189.646 Y50.637 E23.87492
G1 X189.869 Y50.993 E23.88889
G1 X189.998 Y51.208 E23.89723
G1 X190.202 Y51.561 E23.91079
G1 X190.402 Y51.934 E23.92487
G1 X190.517 Y52.159 E23.93327
G1 X190.689 Y52.512 E23.94633
G1 X190.856 Y52.871 E23.9595
G1 X191.068 Y53.358 E23.97717
G1 X191.141 Y53.538 E23.98363
G1 X191.332 Y54.047 E24.00171
G1 X191.535 Y54.632 E24.0223
G1 X191.739 Y55.288 E24.04515
G1 X191.795 Y55.491 E24.05216
G1 X191.914 Y55.962 E24.06832
G1 X191.996 Y56.323 E24.08063
G1 X192.101 Y56.846 E24.09837
G1 X192.137 Y57.052 E24.10533
G1 X192.195 Y57.425 E24.11788
G1 X192.221 Y57.613 E24.12419
G1 X192.263 Y57.962 E24.13588
G1 X192.313 Y58.44 E24.15187
G1 X192.357 Y58.991 E24.17025
G1 X192.369 Y59.221 E24.17791
G1 X192.382 Y59.598 E24.19046
G1 X192.398 Y60.566 E24.22266
G1 X192.4 Y174.185 E28.00164
G1 X192.398 Y174.383 E28.00823
G1 X192.377 Y175.507 E28.04562
G1 X192.363 Y175.886 E28.05824
G1 X192.346 Y176.198 E28.06863
G1 X192.298 Y176.781 E28.08808
G1 X192.248 Y177.197 E28.10202
G1 X192.209 Y177.476 E28.11139
G1 X192.15 Y177.848 E28.12392
G1 X192.091 Y178.183 E28.13523
G1 X192.009 Y178.603 E28.14946
G1 X191.911 Y179.029 E28.164
G1 X191.821 Y179.387 E28.17628
G1 X191.729 Y179.731 E28.18812
G1 X191.654 Y179.992 E28.19716
G1 X191.429 Y180.683 E28.22133
G1 X191.263 Y181.14 E28.2375
G1 X191.059 Y181.66 E28.25608
G1 X190.95 Y181.917 E28.26536
G1 X190.716 Y182.429 E28.28409
G1 X190.507 Y182.857 E28.29993
G1 X190.163 Y183.504 E28.3243
G1 X189.957 Y183.861 E28.33801
G1 X189.567 Y184.485 E28.36248
G1 X189.276 Y184.917 E28.37981
G1 X188.835 Y185.525 E28.40479
G1 X188.573 Y185.86 E28.41893
G1 X188.332 Y186.156 E28.43163
G1 X188.183 Y186.333 E28.43932
G1 X187.713 Y186.856 E28.46271
G1 X187.435 Y187.145 E28.47605
G1 X187.156 Y187.424 E28.48917
G1 X186.872 Y187.698 E28.5023
G1 X186.331 Y188.185 E28.52651
G1 X186.093 Y188.385 E28.53685
G1 X185.777 Y188.641 E28.55037
G1 X185.535 Y188.829 E28.56057
G1 X185.209 Y189.073 E28.57411
G1 X184.835 Y189.336 E28.58932
G1 X184.595 Y189.497 E28.59893
G1 X184.331 Y189.668 E28.60939
G1 X184.156 Y189.778 E28.61627
G1 X183.787 Y190 E28.63059
G1 X183.48 Y190.176 E28.64236
G1 X182.877 Y190.497 E28.66508
G1 X182.453 Y190.705 E28.68079
G1 X182.038 Y190.897 E28.696
G1 X181.696 Y191.044 E28.70838
G1 X181.315 Y191.2 E28.72207
G1 X180.671 Y191.439 E28.74492
G1 X180.382 Y191.536 E28.75506
G1 X179.889 Y191.688 E28.77221
G1 X179.549 Y191.784 E28.78397
G1 X179.046 Y191.913 E28.80124
G1 X178.707 Y191.991 E28.81281
G1 X178.123 Y192.108 E28.83262
G1 X177.954 Y192.137 E28.83832
G1 X177.595 Y192.193 E28.8504
G1 X177.368 Y192.224 E28.85802
G1 X177.037 Y192.263 E28.86911
G1 X176.559 Y192.313 E28.88509
G1 X176.011 Y192.356 E28.90338
G1 X175.782 Y192.368 E28.911
G1 X175.402 Y192.382 E28.92365
G1 X174.433 Y192.398 E28.95589
G1 X60.815 Y192.4 E32.73484
G1 X60.617 Y192.398 E32.74142
G1 X59.493 Y192.377 E32.77881
G1 X59.114 Y192.363 E32.79143
G1 X58.802 Y192.346 E32.80182
G1 X58.219 Y192.298 E32.82127
G1 X57.803 Y192.248 E32.83521
G1 X57.524 Y192.209 E32.84458
G1 X57.152 Y192.15 E32.85711
G1 X56.817 Y192.091 E32.86842
G1 X56.397 Y192.009 E32.88265
G1 X55.971 Y191.911 E32.89719
G1 X55.613 Y191.821 E32.90947
G1 X55.246 Y191.722 E32.92211
G1 X54.97 Y191.642 E32.93167
G1 X54.293 Y191.421 E32.95536
G1 X53.851 Y191.26 E32.971
G1 X53.326 Y191.053 E32.98977
G1 X53.063 Y190.941 E32.99928
G1 X52.566 Y190.713 E33.01747
G1 X52.142 Y190.506 E33.03316
G1 X51.491 Y190.16 E33.05768
G1 X51.136 Y189.955 E33.07132
G1 X50.497 Y189.555 E33.09639
G1 X49.993 Y189.214 E33.11663
G1 X49.271 Y188.68 E33.1465
G1 X48.896 Y188.377 E33.16253
G1 X48.572 Y188.104 E33.17662
G1 X48.37 Y187.927 E33.18556
G1 X47.708 Y187.294 E33.21602
G1 X47.28 Y186.848 E33.23658
G1 X46.822 Y186.339 E33.25936
G1 X46.624 Y186.104 E33.26958
G1 X46.363 Y185.782 E33.28336
G1 X46.174 Y185.539 E33.2936
G1 X45.916 Y185.195 E33.3079
G1 X45.67 Y184.843 E33.32219
G1 X45.508 Y184.602 E33.33184
G1 X45.322 Y184.316 E33.34319
G1 X45.213 Y184.142 E33.35002
G1 X44.998 Y183.784 E33.36391
G1 X44.821 Y183.475 E33.37575
G1 X44.503 Y182.875 E33.39834
G1 X44.293 Y182.447 E33.4142
G1 X44.086 Y182.001 E33.43055
G1 X43.956 Y181.696 E33.44158
G1 X43.8 Y181.315 E33.45527
G1 X43.561 Y180.67 E33.47815
G1 X43.459 Y180.366 E33.48881
G1 X43.301 Y179.852 E33.5067
G1 X43.21 Y179.527 E33.51792
G1 X43.087 Y179.046 E33.53444
G1 X43.009 Y178.707 E33.54601
G1 X42.892 Y178.123 E33.56582
G1 X42.863 Y177.954 E33.57152
G1 X42.808 Y177.599 E33.58347
G1 X42.775 Y177.358 E33.59156
G1 X42.733 Y177.011 E33.60318
G1 X42.685 Y176.547 E33.6187
G1 X42.644 Y176.011 E33.63658
G1 X42.632 Y175.782 E33.64421
G1 X42.618 Y175.398 E33.65699
G1 X42.602 Y174.405 E33.69002
G1 X42.6 Y60.815 E37.46804
G1 X42.602 Y60.617 E37.47462
G1 X42.623 Y59.493 E37.51201
G1 X42.637 Y59.114 E37.52463
G1 X42.654 Y58.802 E37.53502
G1 X42.702 Y58.219 E37.55448
G1 X42.752 Y57.803 E37.56841
G1 X42.791 Y57.524 E37.57778
G1 X42.85 Y57.152 E37.59031
G1 X42.909 Y56.817 E37.60162
G1 X42.991 Y56.397 E37.61586
G1 X43.089 Y55.971 E37.63039
G1 X43.184 Y55.593 E37.64336
G1 X43.294 Y55.19 E37.65725
G1 X43.373 Y54.921 E37.66658
G1 X43.589 Y54.265 E37.68955
G1 X43.746 Y53.836 E37.70474
G1 X43.953 Y53.312 E37.72348
G1 X44.065 Y53.05 E37.73296
G1 X44.287 Y52.567 E37.75064
G1 X44.494 Y52.143 E37.76633
G1 X44.833 Y51.503 E37.79042
G1 X45.038 Y51.147 E37.80408
G1 X45.445 Y50.497 E37.82959
G1 X45.786 Y49.993 E37.84983
G1 X46.319 Y49.273 E37.87963
G1 X46.613 Y48.909 E37.89519
G1 X46.875 Y48.597 E37.90874
G1 X47.061 Y48.384 E37.91814
G1 X47.704 Y47.709 E37.94915
G0 F6000 X47.981 Y47.998
